!!!!SEGMENT: pl-sa--290-a-vii-50--002_lechleitner-ferdinand-simon-missa-s-luciae-gloria.krn
!!!id: 17xx:431
!!!COM: Lechleitner, Ferdinand Simon
!!!OTL: Missa S. Luciae – Gloria
!!!PDT: 1738
!!!SMS-siglum: PL-SA
!!!SMS-shelfmark: 290/A VII 50
!!!NIFC-rismID: 1001070169
!!!URL-scan: http://bc.bdsandomierz.pl/dlibra/publication/1785/edition/1753/content
!!!ONB-nifc: UWAGA: części Mszy: Kyrie, Gloria, Patrem, Sanctus, Benedictus, Agnus Dei
**kern	**fba	**kern	**kern	**kern	**text	**kern	**text	**kern	**text	**kern	**text	**kern	**kern
*part9	*	*part8	*part7	*part6	*part6	*part5	*part5	*part4	*part4	*part3	*part3	*part2	*part1
*staff9	*	*staff8	*staff7	*staff6	*staff6	*staff5	*staff5	*staff4	*staff4	*staff3	*staff3	*staff2	*staff1
*I"Organo	*	*I"Violino Secundo	*I"Violino Primo	*I"Baſso	*	*I"Tenore	*	*I"alto	*	*I"Canto	*	*I"Clarino 2do	*I"Clarino. primo Ex C.
*I'org	*	*I'vl 2	*I'vl 1	*I'B	*	*I'T	*	*I'A	*	*I'S	*	*I'clno 2 in C	*I'clno 1 in C
*clefF4	*	*clefG2	*clefG2	*clefF4	*	*clefC4	*	*clefC3	*	*clefC1	*	*clefG2	*clefG2
*k[]	*	*k[]	*k[]	*k[]	*	*k[]	*	*k[]	*	*k[]	*	*k[]	*k[]
*M4/4	*	*M4/4	*M4/4	*M4/4	*	*M4/4	*	*M4/4	*	*M4/4	*	*M4/4	*M4/4
*met(c)	*	*met(c)	*met(c)	*met(c)	*	*met(c)	*	*met(c)	*	*met(c)	*	*met(c)	*met(c)
=1	=1	=1	=1	=1	=1	=1	=1	=1	=1	=1	=1	=1	=1
!LO:TX:a:t=P:mixed beam:problem	!	!LO:TX:b:t=Gloria in excelſis	!LO:TX:b:t=Gloria in excelſis	!	!	!	!	!	!	!	!	!	!
!LO:TX:a:i:t=Tutti	!	!	!	!	!	!	!	!	!	!	!	!LO:TX:rj:b:t=Gloria	!LO:TX:rj:b:t=Gloria
!LO:TX:rj:b:t=Gloria	!	!	!	!	!	!	!	!	!	!	!	!	!
8c\L	.	16cc\LL	16cc\LL	8c\	Glo-	8e\	Glo-	8g\	Glo-	8cc\	Glo-	8e/L	8c/L
.	.	16b\	16g\	.	.	.	.	.	.	.	.	.	.
8C/J	.	16cc\	16a\	16C/	-ri-	16e\	-ri-	16g\	-ri-	16cc\	-ri-	16e/L	16c/L
.	.	16dd\JJ	16b\JJ	16C/	-a	16e\	-a	16g\	-a	16cc\	-a	16e/JJ	16c/JJ
4r	.	16ee\LL	16cc\LL	4r	.	4r	.	4r	.	4r	.	16e/LL	16c/LL
.	.	16dd\	16dd\	.	.	.	.	.	.	.	.	16e/	16c/
.	.	16cc\	16ee\	.	.	.	.	.	.	.	.	16e/	16c/
.	.	16dd\JJ	16ff\JJ	.	.	.	.	.	.	.	.	16e/JJ	16c/JJ
*	*	*	*	*	*ij	*	*ij	*	*ij	*	*ij	*	*
!LO:TX:a:t=P:mixed beam:problem	!	!LO:TX:a:t=P:mixed beam:problem	!	!	!	!	!	!	!	!	!	!	!
8c\L	.	16ee\LL	16gg\LL	8E\	Glo-	8c\	Glo-	8g\	Glo-	8cc\	Glo-	8c/L	8e/L
.	.	16g/	16b\	.	.	.	.	.	.	.	.	.	.
8C/J	.	16a/	16cc\	16C/	-ri-	16G/	-ri-	16e\	-ri-	16ee\	-ri-	16c/L	16e/L
.	.	16b/JJ	16dd\JJ	16C/	-a	16c\	-a	16g\	-a	16ee\	-a	16c/JJ	16e/JJ
*	*	*	*	*	*Xij	*	*Xij	*	*Xij	*	*Xij	*	*
4r	.	16cc\LL	16ee\LL	4r	.	4r	.	4r	.	4r	.	16c/LL	16e/LL
.	.	16b\	16dd\	.	.	.	.	.	.	.	.	16c/	16e/
.	.	16cc\	16ee\	.	.	.	.	.	.	.	.	16c/	16e/
.	.	16dd\JJ	16ff\JJ	.	.	.	.	.	.	.	.	16c/JJ	16e/JJ
=2	=2	=2	=2	=2	=2	=2	=2	=2	=2	=2	=2	=2	=2
*	*	*	*	*	*ij	*	*ij	*	*ij	*	*ij	*	*
!LO:TX:a:t=P:mixed beam:problem	!	!	!LO:TX:a:t=P:mixed beam:problem	!	!	!	!	!	!	!	!	!	!
8c\L	.	16ee\LL	16gg\LL	8C/	Glo-	8c\	Glo-	8cc\	Glo-	8cc\	Glo-	8e/L	8g/L
.	.	16b\	16g/	.	.	.	.	.	.	.	.	.	.
8C/J	.	16cc\	16a/	16C/	-ri-	16c\	-ri-	16g\	-ri-	16ee\	-ri-	16e/L	16g/L
.	.	16dd\JJ	16b/JJ	16C/	-a	16e\	-a	16g\	-a	16cc\	-a	16e/JJ	16g/JJ
*	*	*	*	*	*Xij	*	*Xij	*	*Xij	*	*Xij	*	*
4r	.	16ee\LL	16cc\LL	4r	.	4r	.	4r	.	4r	.	16e/LL	16g/LL
.	.	16dd\	16b\	.	.	.	.	.	.	.	.	16e/	16g/
.	.	16ee\	16cc\	.	.	.	.	.	.	.	.	16e/	16g/
.	.	16ff\JJ	16dd\JJ	.	.	.	.	.	.	.	.	16e/JJ	16g/JJ
!LO:TX:a:t=P:mixed beam:problem	!	!	!	!	!	!	!	!	!	!	!	!LO:TX:a:t=P:mixed beam:problem	!LO:TX:a:t=P:mixed beam:problem
8c\L	.	16gg\LL	16ee\LL	8C/	-glo-	8c\	-glo-	8g\	glo-	8ee\	glo-	8g/L	8e/L
.	.	16ee\	16gg\	.	.	.	.	.	.	.	.	.	.
8C/J	.	16ee\	16gg\	16C/	-ri-	16e\	-ri-	16e\	-ri-	16gg\	-ri-	8ee\J	8gg\J
.	.	16ee\JJ	16gg\JJ	16C/	-a	16e,\	-a	16e,\	-a	16gg,\	-a	.	.
8E\L	6	16ee\LL	16gg\LL	8E\	in	8e\	in	8g\	in	8gg\	in	8ff\L	8gg\L
.	.	16ee\	16gg\	.	.	.	.	.	.	.	.	.	.
8F\J	6 5	16dd\	16ff\	8E\	ex-	16d\LL	ex-	8a\	ex-	(16ff\LL	ex-	16dd\L	16ff\L
.	.	16cc\JJ	16ee\JJ	.	.	16c\JJ	.	.	.	16ee\JJ)	.	16cc\JJ	16ee\JJ
=3	=3	=3	=3	=3	=3	=3	=3	=3	=3	=3	=3	=3	=3
8G\L	.	16b/LL	16dd\LL	8G\	-cel-	8B\	-cel-	8b\	-cel-	8dd\	-cel-	8.g/L	8.dd\L
.	.	16g/	16b\	.	.	.	.	.	.	.	.	.	.
8G\	.	16g/	16b\	8G\	-ſis	8B,\	-ſis	8b,\	-ſis	8dd\	-ſis	.	.
.	.	16g/JJ	16b\JJ	.	.	.	.	.	.	.	.	16g/K	16dd\Jk
!	!	!	!LO:TX:a:t=P:mixed beam:problem	!	!	!	!	!	!	!	!	!	!
8B\	6	16g/LL	16g/LL	8B\	-in	8B\	-in	8g\	-in	8dd\	in	8g/	8dd\L
.	.	16b/	16dd\	.	.	.	.	.	.	.	.	.	.
8G\J	.	16b/	16dd\	8G\	ex-	8B\	ex-	8g\	ex-	8dd\	ex-	8g/J	8dd\J
.	.	16b/JJ	16dd\JJ	.	.	.	.	.	.	.	.	.	.
!	!	!	!	!	!	!	!	!	!	!	!	!LO:TX:a:t=P:mixed beam:problem	!
8c\L	.	8cc\L	16ee\LL	8c\	-cel-	8c\	-cel-	8g\	-cel-	8ff\	-cel-	8g/L	8ee\L
.	.	.	16gg\	.	.	.	.	.	.	.	.	.	.
8B\	6	8dd\	16dd\	8B\	-ſis	8d,\	-ſis	8g\	-ſis	16dd\	-sis	8dd\	8gg\
.	.	.	16gg\JJ	.	.	.	.	.	.	16dd\	De-	.	.
8A\	7	8cc\	8.gg\L	8A\	-De-	8A/	-De-	8f#X\	De-	4cc\	-o	8cc\	8gg\
8D\J	7 #	8cc\J	.	8D,/	-o	8A/	-o	8g\	-o	.	.	8cc\J	8ff#X\J
.	.	.	16ff#X\Jk	.	.	.	.	.	.	.	.	.	.
!	!	!	!	!	!	!LO:LB:g=original	!	!LO:LB:g=original	!	!LO:PB:g=original	!	!	!
=4	=4	=4	=4	=4	=4	=4	=4	=4	=4	=4	=4	=4	=4
!LO:TX:a:t=P:mixed beam:problem	!	!	!LO:TX:a:t=P:mixed beam:problem	!	!	!LO:SIC:o:s=:v:w źródle brak fragmentu - 4 takty	!	!	!	!	!	!	!
8G\L	.	16b\LL	16gg\LL	8G\	glo-	1ryy	.	8g\	-Glo-	8dd\	Glo-	4dd\	4gg\
.	.	16g\	16g/	.	.	.	.	.	.	.	.	.	.
8GG/J	.	16b\	16b/	16G\	-ri-	.	.	16g\	-ri-	16dd\	-ri-	.	.
.	.	16cc\JJ	16cc/JJ	16G\	-a	.	.	16g\	-a	16dd\	-a	.	.
4r	.	16dd\LL	16dd\LL	4r	.	.	.	4r	.	4r	.	4r	4r
.	.	16ee\	16ee\	.	.	.	.	.	.	.	.	.	.
.	.	16ff#X\	16ff#X\	.	.	.	.	.	.	.	.	.	.
.	.	16dd\JJ	16dd\JJ	.	.	.	.	.	.	.	.	.	.
!	!	!	!LO:LB:g=original	!	!	!	!	!	!	!	!	!	!
*	*	*	*	*	*ij	*	*	*	*ij	*	*ij	*	*
!LO:TX:a:t=P:mixed beam:problem	!	!	!	!	!	!	!	!	!	!	!	!	!
8G\L	.	16gg\LL	16gg\LL	8G\	glo-	.	.	8d\	Glo-	8b\	Glo-	2r	2r
.	.	16gg\	16gg\	.	.	.	.	.	.	.	.	.	.
8GG/J	.	16ff#X\	16ff#X\	16GG/	-ri-	.	.	16g\	-ri-	16b\	-ri-	.	.
.	.	16ee\JJ	16ee\JJ	16GG/	-a	.	.	16g\	-a	16b\	-a	.	.
!	!	!LO:LB:g=original	!	!	!	!	!	!	!	!	!	!	!
*	*	*	*	*	*Xij	*	*	*	*Xij	*	*Xij	*	*
4r	.	16dd\LL	16dd\LL	4r	.	.	.	4r	.	4r	.	.	.
.	.	16cc\	16cc\	.	.	.	.	.	.	.	.	.	.
.	.	16b\	16b\	.	.	.	.	.	.	.	.	.	.
.	.	16a\JJ	16a\JJ	.	.	.	.	.	.	.	.	.	.
=5	=5	=5	=5	=5	=5	=5	=5	=5	=5	=5	=5	=5	=5
!	!	!	!LO:TX:a:t=P:mixed beam:problem	!	!	!	!	!	!	!	!	!	!
8G\L	.	16g/LL	16g/LL	8G\	glo-	1ryy	.	8g\	glo-	8dd\	glo-	8r	8r
.	.	16b/	16dd\	.	.	.	.	.	.	.	.	.	.
8G\	.	16b/	16dd\	16G\	-ri-	.	.	16g\	-ri-	16b\	-ri-	16g/LL	16g/LL
.	.	16b/JJ	16dd\JJ	16G\	-a	.	.	16g,\	-a	16b\	-a	16g/JJ	16g/JJ
8B\	6	16b/LL	16dd\LL	8B\	in	.	.	8g/	in	8b,\	in	16g/LL	16g/LL
.	.	16cc/	16ee\	.	.	.	.	.	.	.	.	16g/	16g/
8G\J	.	16a/	16cc\	8G\	ex-	.	.	8b\	ex-	8dd\	ex-	16g/	16g/
.	.	16b/JJ	16dd\JJ	.	.	.	.	.	.	.	.	16g/JJ	16g/JJ
!	!	!	!	!	!	!	!	!	!	!	!	!	!LO:LB:g=original
!LO:TX:a:t=P:mixed beam:problem	!	!	!	!	!	!	!	!	!	!	!	!	!
8c\L	.	8cc\L	16ee\LL	8c\	-cel-	.	.	8g\	-cel-	8ee\	-cel-	8g/L	8g/L
.	.	.	16gg\	.	.	.	.	.	.	.	.	.	.
8C/J	.	8cc\	16gg\	8C/	-ſis	.	.	8e\	-ſis	8ee\	-ſis	8g/	8g/J
.	.	.	16ff\JJ	.	.	.	.	.	.	.	.	.	.
8E\L	.	8cc\	16ee\LL	8E\	-De-	.	.	8g\	-De-	8ee,\	De-	8g/	8cc\L
.	.	.	16cc\	.	.	.	.	.	.	.	.	.	.
8G\J	6	8b\J	16dd\	8G,\	-o	.	.	8g\	-o	8dd\	-o	8g/J	8dd\J
.	.	.	16b\JJ	.	.	.	.	.	.	.	.	.	.
=6	=6	=6	=6	=6	=6	=6	=6	=6	=6	=6	=6	=6	=6
!LO:TX:a:t=P:mixed beam:problem	!	!	!	!	!	!	!	!	!	!	!	!	!LO:TX:a:t=P:mixed beam:problem
8c\L	.	16cc\LL	16cc\LL	8c\	glo-	1ryy	.	8e\	glo-	8ee\	glo-	8g/L	8ee\L
.	.	16b\	16g\	.	.	.	.	.	.	.	.	.	.
8C/J	.	16cc\	16a\	16C/	-ri-	.	.	16g\	-ri-	16ee\	-ri-	16e/L	16g/L
.	.	16dd\JJ	16b\JJ	16C/	-a	.	.	16g\	-a	16ee\	-a	16e/JJ	16g/JJ
!	!	!	!	!	!	!	!	!	!	!	!	!LO:LB:g=original	!
4r	.	16ee\LL	16cc\LL	4r	.	.	.	4r	.	4r	.	16e/LL	16g/LL
.	.	16dd\	16dd\	.	.	.	.	.	.	.	.	16e/	16g/
.	.	16cc\	16ee\	.	.	.	.	.	.	.	.	16e/	16g/
.	.	16dd\JJ	16ff\JJ	.	.	.	.	.	.	.	.	16e/JJ	16g/JJ
*	*	*	*	*	*ij	*	*	*	*ij	*	*ij	*	*
!LO:TX:a:t=P:mixed beam:problem	!	!LO:TX:a:t=P:mixed beam:problem	!	!	!	!	!	!	!	!	!	!	!
8c\L	.	16ee\LL	16gg\LL	8C/	glo-	.	.	8cc\	glo-	8cc\	glo-	8c/L	8e/L
.	.	16g/	16b\	.	.	.	.	.	.	.	.	.	.
8C/J	.	16a/	16cc\	16C/	-ri-	.	.	16g\	-ri-	16cc\	-ri-	16c/L	16e/L
.	.	16b/JJ	16dd\JJ	16C/	-a	.	.	16g\	-a	16cc\	-a	16c/JJ	16e/JJ
*	*	*	*	*	*Xij	*	*	*	*XIj	*	*Xij	*	*
4r	.	16cc\LL	16ee\LL	4r	.	.	.	4r	.	4r	.	16c/LL	16e/LL
.	.	16b\	16dd\	.	.	.	.	.	.	.	.	16c/	16e/
.	.	16cc\	16ee\	.	.	.	.	.	.	.	.	16c/	16e/
.	.	16dd\JJ	16ff\JJ	.	.	.	.	.	.	.	.	16c/JJ	16e/JJ
!LO:LB:g=original	!	!	!	!	!	!	!	!	!	!	!	!	!
=7	=7	=7	=7	=7	=7	=7	=7	=7	=7	=7	=7	=7	=7
*	*	*	*	*	*	*	*	*	*ij	*	*	*	*
8C\L	.	16ee\LL	16ee\LL	8C/	glo-	1ryy	.	8g\	glo-	8ee\	glo-	4e/	4c/
.	.	16cc\	16cc\	.	.	.	.	.	.	.	.	.	.
!	!	!	!	!	!	!	!	!	!	!LO:LB:g=original	!	!	!
8C\	.	16ee\	16ee\	16C/	-ri-	.	.	16e\	-ri-	16cc\	-ri-	.	.
!	!	!	!	!	!	!	!	!LO:LB:g=original	!	!	!	!	!
.	.	16ff\JJ	16ff\JJ	16C,/	-a	.	.	16e,\	-a	16cc,\	-a	.	.
*	*	*	*	*	*	*	*	*	*Xij	*	*	*	*
8G\	.	16gg\LL	16gg\LL	8G\	in	.	.	8g\	in	8b\	in	8r	8r
.	.	16aa\	16aa\	.	.	.	.	.	.	.	.	.	.
8G\J	.	16bb\	16bb\	8G\	ex-	.	.	8b\	ex-	8dd\	ex-	8g/	8dd\
.	.	16gg\JJ	16gg\JJ	.	.	.	.	.	.	.	.	.	.
!	!	!	!	!	!	!	!	!	!	!	!	!LO:TX:a:t=P:mixed beam:problem	!
8E\L	6	16ccc\LL	16ccc\LL	8E\	-cel-	.	.	8g\	-cel-	8cc\	-cel-	8g/L	8ee\L
.	.	16ee\	16gg\	.	.	.	.	.	.	.	.	.	.
8C\J	.	16ee\	16gg\	8C/	-ſis	.	.	8g\	-ſis	8ee,\	-ſis	8ee\J	8ee\J
.	.	16ee\JJ	16gg\JJ	.	.	.	.	.	.	.	.	.	.
16C\LL	.	16ee\LL	16gg\LL	(16C/LL	-De-	.	.	16e\LL	-De-	(16gg\LL	De-	8ee\L	16gg\LL
16D\	.	16dd\	16ff\	16D/JJ)	.	.	.	16f\JJ	.	16ff\JJ)	.	.	16ff\
16E\	.	16cc\	16ee\	16E\LL	-o	.	.	16g\LL	-o	(16ee\LL	-o	16dd\L	16ee\
16F\JJ	.	16cc\JJ	16dd\JJ	16F,\JJ	.	.	.	16a,\JJ	.	16dd\JJ)	.	16cc\JJ	16dd\JJ
=8	=8	=8	=8	=8	=8	=8	=8	=8	=8	=8	=8	=8	=8
!	!	!	!	!	!	!	!	!	!	!	!	!	!LO:TX:a:t=P:mixed beam:problem
8G\L	.	8b\L	16dd\LL	8G\	-glo-	8B\	glo-	8g\	-glo-	8dd\	glo-	8g/L	8ee\L
.	.	.	16b\JJ	.	.	.	.	.	.	.	.	.	.
!	!	!	!LO:LB:g=original	!	!	!	!	!	!	!	!	!	!
8G\	.	8b\	16dd\LL	16G\	-ri-	16B\	-ri-	16g\	-ri-	16dd\	-ri-	16g/L	16g/L
.	.	.	16gg\JJ	16G,\	-a	16B,\	-a	16g,\	-a	16dd\	-a	16g/JJ	16g/JJ
*	*	*	*	*	*ij	*	*ij	*	*ij	*	*ij	*	*
8c\	.	8cc\	16ee\LL	8c\	glo-	8G/	glo-	8e\	glo-	8cc\	glo-	16g/LL	16g/LL
.	.	.	16cc\	.	.	.	.	.	.	.	.	16g/	16g/
8G\J	.	8dd\J	16dd\	16G\	-ri-	16B\	-ri-	16g\	-ri-	16dd\	-ri-	16g/	16g/
.	.	.	16gg\JJ	16G\	-a	16B\	-a	16b\	-a	16dd,\	-a	16g/JJ	16g/JJ
*	*	*	*	*	*Xij	*	*Xij	*	*Xij	*	*Xij	*	*
8E\L	6	8ee\L	8ee\L	8E\	glo-	8c\	glo-	8g\	glo-	8cc\	glo-	8g/L	8g/L
8C\J	.	8ee\J	8ee\J	16C/	-ri-	16c\	-ri-	16g\	-ri-	16ee\	-ri-	8g/J	8g/J
.	.	.	.	16C/	-a	16c\	-a	16g\	-a	16ee\	-a	.	.
4r	.	4r	4r	4r	.	4r	.	4r	.	4r	.	4r	4r
=9||	=9||	=9||	=9||	=9||	=9||	=9||	=9||	=9||	=9||	=9||	=9||	=9||	=9||
*2\right	*	*2\right	*2\right	*2\right	*	*2\right	*	*2\right	*	*2\right	*	*	*
!LO:TX:b:t=Et interra	!	!LO:TX:b:t=Et In	!LO:TX:b:t=Et Interra	!	!	!	!	!	!	!	!	!	!
!LO:TX:rj:b:B:t=adagio	!	!LO:TX:a:B:t=adagio	!LO:TX:a:B:t=adagio	!LO:TX:a:B:t=adagio	!	!	!	!	!	!LO:TX:a:B:t=adagio	!	!	!
2E\	n	2b\	2ee\	2E\	Et	2e\	Et	2g\	Et	2b\	Et	00r	00r
8r	.	8r	8r	8r	.	8r	.	8r	.	8r	.	.	.
8B\L	#	8dd#X\	8ff#X\L	8B\	in	8d#X\	in-	8f#X\	in	8dd#X\	in	.	.
!	!	!LO:LB:g=original	!	!	!	!	!	!	!	!	!	!	!
8G\	6	8b/L	8gg\	8G\	ter-	8B\	-ter-	8e\	ter-	8ee\	ter-	.	.
8E\J	.	8b/J	8gg\J	8E\	-ra	8B\	-ra	8g\	-ra	8ee\	-ra	.	.
!	!	!	!	!	!	!	!	!	!	!LO:LB:g=original	!	!	!
=10	=10	=10	=10	=10	=10	=10	=10	=10	=10	=10	=10	=10	=10
4E\	4 #2	4a/	4ff#X\	4E\	pax	4A/	pax	4a\	pax	4ff#X\	pax	.	.
4D\	6	4b/	4ff#\	4D/	ho-	4B\	ho-	4f#X\	ho-	4ff#\	ho-	.	.
!	!	!	!	!	!	!	!	!LO:LB:g=original	!	!	!	!	!
4.C/	7	4.b/	4.ee\	4.C/	-mi-	4.B\	-mi-	4.g\	-mi-	4.ee\	-mi-	.	.
8C/	6\	8a/	8ee\	8C/	-ni-	8A/	-ni-	8e\	-ni-	8ee\	-ni-	.	.
=11	=11	=11	=11	=11	=11	=11	=11	=11	=11	=11	=11	=11	=11
4BB/	#	4.b\	4dd#X\	4BB,/	-bus	4B,\	-bus	4f#X,\	-bus	4dd#X,\	-bus	.	.
8D#X/L	6	.	8ff#X\L	8D#X/	bo-	8B\	bo-	8f#\	bo-	8b\	bo-	.	.
8BB/J	.	8dd#X\	8ff#\J	8BB,/	-nae	8B\	-nae	8f#\	-nae	8dd#,\	-nae	.	.
4E\	6 5	4ee\	4ee\	4E\	vo-	4c#X\	vo-	4g\	vo-	4ee\	vo-	.	.
!	!	!	!	!	!	!LO:LB:g=original	!	!	!	!	!	!	!
4C#X/	.	4a/	4ee\	4C#X/	-lun-	4c#\	-lun-	4e\	-lun-	4ee\	-lun-	.	.
=12	=12	=12	=12	=12	=12	=12	=12	=12	=12	=12	=12	=12	=12
4F#X\	.	4.b/	4.ff#X\	2F#X\	-ta-	(4B\	-ta-	2f#X\	-ta-	4.cc\	-ta-	.	.
4FF#X/	7 4	.	.	.	.	4A\)	.	.	.	.	.	.	.
.	# 3	8a/	8ff#\	.	.	.	.	.	.	16b\LL	.	.	.
.	.	.	.	.	.	.	.	.	.	16cc\JJ	.	.	.
!LO:TX:a:t=P:mixed beam:problem	!	!	!	!	!	!	!	!	!	!	!	!	!
8BB/L	.	4b/	4ff#\	8BB,/	-tis	8B,\	-tis	8f#,\	-tis	8dd#X,\	-tis	.	.
8B\	.	.	.	8B\	in	8d#X\	in	8f#\	in	8b\	in	.	.
8G\	6	8r	8r	8G\	ter-	8e\	ter-	8e\	ter-	8b\	ter-	.	.
8E\J	.	8bb\	8bb\	8E\	-ra	8e\	-ra	8g\	-ra	8b\	-ra	.	.
!LO:LB:g=original	!	!	!	!	!	!	!	!	!	!	!	!	!
=13	=13	=13	=13	=13	=13	=13	=13	=13	=13	=13	=13	=13	=13
8r	.	8gg\L	8gg\L	8r	.	8r	.	8r	.	8r	.	0r	0r
*	*	*	*	*	*ij	*	*ij	*	*	*	*ij	*	*
8E/L	.	8ee\J	8ee\J	8E\	in	8e\	in	8g\	in	8b\	in	.	.
8C/	.	8r	8r	8C/	ter-	8e\	ter-	8e\	ter-	8cc\	ter-	.	.
8AA/J	.	8ee\L	8ee\	8AA/	-ra	8e\	-ra	8c/	-ra	8cc\	-ra	.	.
8r	.	8cc\	8cc\L	8r	.	8r	.	8r	.	8r	.	.	.
*	*	*	*	*	*Xij	*	*Xij	*	*ij	*	*Xij	*	*
8A\L	.	8a\J	8a\	8A\	in	8c\	in	8a\	in	8ee\	in	.	.
8F#X\	6	8r	8r	8F\	ter-	8d\	ter-	8f\	ter-	8ff\	ter-	.	.
8D\J	.	8aa\	8aa\J	8D/	-ra	8d\	-ra	8a\	-ra	8ff\	-ra	.	.
!	!	!	!LO:LB:g=original	!	!	!	!	!	!	!	!	!	!
=14	=14	=14	=14	=14	=14	=14	=14	=14	=14	=14	=14	=14	=14-
8r	.	8ff#X\L	8ff#X\L	8r	.	8r	.	8r	.	8r	.	.	.
*	*	*	*	*	*ij	*	*ij	*	*ij	*	*ij	*	*
8D/L	#	8dd\J	8dd\	8D/	in	8A/	in	8f#X\	in	8dd\	in	.	.
!	!	!	!	!	!	!	!	!	!	!LO:LB:g=original	!	!	!
8BB/	6	8r	8r	8BB/	ter-	8B\	ter-	8g\	ter-	8dd\	ter-	.	.
!	!	!LO:TX:a:t=P:mixed beam:problem	!	!	!	!	!	!	!	!	!	!	!
8GG/J	.	8dd\L	8dd\J	8GG/	-ra	8B\	-ra	8g\	-ra	8dd\	-ra	.	.
*	*	*	*	*	*Xij	*	*Xij	*	*	*	*	*	*
!	!	!	!	!	!	!	!	!LO:LB:g=original	!	!	!	!	!
8r	.	8b\	8b\L	8r	.	8r	.	8r	.	8r	.	.	.
8G\L	.	8g/J	8g\	8G\	in	8d\	in	8g\	in	8b\	in	.	.
8E\	6	8r	8r	8E\	ter-	8e\	ter-	8g\	ter-	8cc\	ter-	.	.
8C\J	.	8gg\	8gg\J	8C/	-ra	8e\	-ra	8e\	-ra	8cc\	-ra	.	.
*	*	*	*	*	*	*	*	*	*Xij	*	*Xij	*	*
=15	=15	=15	=15	=15	=15	=15	=15	=15	=15	=15	=15	=15	=15
8r	.	8ee\L	8ee\L	8r	.	8r	.	8r	.	8r	.	8r	8r
4C/	.	8cc\	8cc\J	4C/	bo-	4e\	bo-	4e\	bo-	4gg\	bo-	4ee\	4gg\
.	.	8ee\	8gg\L	.	.	.	.	.	.	.	.	.	.
8D/	6	8dd\J	8ff\J	8D/	-nae	8d\	-nae	8f\	-nae	8ff,\	-nae	8dd\	8ff\
!	!	!	!	!	!	!LO:LB:g=original	!	!	!	!	!	!	!LO:LB:g=original
*	*	*	*	*	*	*	*	*	*	*	*	*2\right	*
4E\	6	4cc\	4ee\	4E\	vo-	4c\	vo-	4g\	vo-	4ee\	vo-	2cc\	4ee\
4F#X\	6 5	4cc\	4dd\	4F#X\	-lun-	4c\	-lun-	4a\	-lun-	4dd\	-lun-	.	4dd\
=16	=16	=16	=16	=16	=16	=16	=16	=16	=16	=16	=16	=16	=16
4G\	4	4.cc\	4.dd\	4G\	-ta-	(4c\	-ta-	2g\	-ta-	4.dd\	-ta-	4.g/	4.dd\
.	3	.	.	.	.	.	.	.	.	.	.	.	.
4GG/	.	.	.	4GG/	.	4B\)	.	.	.	.	.	.	.
.	.	8b\	16cc\LL	.	.	.	.	.	.	16cc\LL	.	8g/	16cc\LL
.	.	.	16dd\JJ	.	.	.	.	.	.	16dd\JJ	.	.	16dd\JJ
4C/	.	16cc\LL	16ee\LL	4C/	-tis	4c\	-tis	4g\	-tis	4ee\	-tis	4e/	4ee\
.	.	16ee\	16gg\	.	.	.	.	.	.	.	.	.	.
.	.	16ee\	16gg\	.	.	.	.	.	.	.	.	.	.
.	.	16dd\JJ	16ff\JJ	.	.	.	.	.	.	.	.	.	.
!LO:TX:b:Bi:t=allegro	!	!	!	!	!	!	!	!	!	!	!	!	!
!LO:TX:a:i:t=Solo	!	!LO:LB:g=original	!	!	!	!	!	!	!	!	!	!	!
8r	.	16cc\LL	16ee\LL	4r	.	4r	.	4r	.	4r	.	4r	4r
.	.	16dd\	16ff\	.	.	.	.	.	.	.	.	.	.
8C/	.	16ee\	16gg\	.	.	.	.	.	.	.	.	.	.
.	.	16cc\JJ	16ee\JJ	.	.	.	.	.	.	.	.	.	.
=17	=17	=17	=17	=17	=17	=17	=17	=17	=17	=17	=17	=17	=17
!	!	!LO:TX:a:t=P:mixed beam:problem	!	!	!	!	!	!	!	!	!	!	!
4F\	.	16ff\LL	16aa\LL	1r	.	0r	.	0r	.	0r	.	0r	0r
.	.	16a/	16cc\	.	.	.	.	.	.	.	.	.	.
.	.	16a/	16cc\	.	.	.	.	.	.	.	.	.	.
.	.	16a/JJ	16cc\JJ	.	.	.	.	.	.	.	.	.	.
!	!	!LO:TX:a:t=P:mixed beam:problem	!	!	!	!	!	!	!	!	!	!	!
8r	.	16a/LL	16cc\LL	.	.	.	.	.	.	.	.	.	.
.	.	16ff\	16aa\	.	.	.	.	.	.	.	.	.	.
8F\	.	16ee\	16gg\	.	.	.	.	.	.	.	.	.	.
.	.	16ff\JJ	16ff\JJ	.	.	.	.	.	.	.	.	.	.
4C/	.	16ee\LL	16gg\LL	.	.	.	.	.	.	.	.	.	.
.	.	16cc\	16ee\	.	.	.	.	.	.	.	.	.	.
.	.	16cc\	16ee\	.	.	.	.	.	.	.	.	.	.
.	.	16cc\JJ	16ee\JJ	.	.	.	.	.	.	.	.	.	.
8r	.	16cc\LL	16ee\LL	.	.	.	.	.	.	.	.	.	.
.	.	16ee\	16gg\	.	.	.	.	.	.	.	.	.	.
8C/	.	16dd\	16ff\	.	.	.	.	.	.	.	.	.	.
.	.	16cc\JJ	16ee\JJ	.	.	.	.	.	.	.	.	.	.
=18	=18	=18	=18	=18	=18	=18	=18	=18	=18	=18	=18	=18	=18
8D/L	.	16b\LL	16ff\LL	1r	.	.	.	.	.	.	.	.	.
.	.	16cc\	16ee\	.	.	.	.	.	.	.	.	.	.
8C/	.	16b\	16dd\	.	.	.	.	.	.	.	.	.	.
.	.	16cc\JJ	16ee\JJ	.	.	.	.	.	.	.	.	.	.
8BB/	.	16dd\LL	16ff\LL	.	.	.	.	.	.	.	.	.	.
.	.	16b\	16dd\	.	.	.	.	.	.	.	.	.	.
8GG/J	7	16ee\	16gg\	.	.	.	.	.	.	.	.	.	.
.	.	16dd\JJ	16ff\JJ	.	.	.	.	.	.	.	.	.	.
4C/	.	16cc\LL	16ee\LL	.	.	.	.	.	.	.	.	.	.
.	.	16ee\	16cc\	.	.	.	.	.	.	.	.	.	.
.	.	16ee\	16cc\	.	.	.	.	.	.	.	.	.	.
.	.	16ee\JJ	16cc\JJ	.	.	.	.	.	.	.	.	.	.
!	!	!	!LO:LB:g=original	!	!	!	!	!	!	!	!	!	!
4r	.	16ee\LL	16cc\LL	.	.	.	.	.	.	.	.	.	.
.	.	16ee\	16cc\	.	.	.	.	.	.	.	.	.	.
.	.	16gg\	16ee\	.	.	.	.	.	.	.	.	.	.
.	.	16ee\JJ	16gg\JJ	.	.	.	.	.	.	.	.	.	.
!LO:LB:g=original	!	!	!	!	!	!	!	!	!	!	!	!	!
=19	=19	=19	=19	=19	=19	=19	=19	=19	=19	=19	=19	=19	=19
4F\	.	16cc/LL	16aa\LL	1r	.	1r	.	1r	.	1r	.	1r	1r
.	.	16a/	16cc\	.	.	.	.	.	.	.	.	.	.
.	.	16a/	16cc\	.	.	.	.	.	.	.	.	.	.
.	.	16a/JJ	16cc\JJ	.	.	.	.	.	.	.	.	.	.
4r	.	16a/LL	16cc\LL	.	.	.	.	.	.	.	.	.	.
.	.	16a/	16cc\	.	.	.	.	.	.	.	.	.	.
.	.	16cc/	16ff\	.	.	.	.	.	.	.	.	.	.
.	.	16cc/JJ	16aa\JJ	.	.	.	.	.	.	.	.	.	.
8C\L	.	16ee\LL	16gg\LL	.	.	.	.	.	.	.	.	.	.
.	.	16ee\	16gg\	.	.	.	.	.	.	.	.	.	.
8F\	6 5	16dd\	16ff\	.	.	.	.	.	.	.	.	.	.
.	.	16cc\JJ	16ee\JJ	.	.	.	.	.	.	.	.	.	.
!LO:TX:a:t=P:mixed beam:problem	!	!	!	!	!	!	!	!	!	!	!	!	!
8G\	4	8.dd\L	16dd\LL	.	.	.	.	.	.	.	.	.	.
.	.	.	16bb\	.	.	.	.	.	.	.	.	.	.
8GG/J	3	.	16aa\	.	.	.	.	.	.	.	.	.	.
.	.	16dd\Jk	16bb\JJ	.	.	.	.	.	.	.	.	.	.
=20	=20	=20	=20	=20	=20	=20	=20	=20	=20	=20	=20	=20	=20-
!LO:TX:a:t=Tutti	!	!	!	!	!	!	!	!	!	!	!	!	!
8C\L	.	8ee\L	16ccc\LL	8r	.	8r	.	8r	.	8r	.	8r	8r
.	.	.	16gg\	.	.	.	.	.	.	.	.	.	.
8C\	.	8ee\	16gg\	8C/	Lau-	8c\	Lau-	8e\	Lau-	8ee\	Lau-	8e/L	8cc\L
.	.	.	16gg\JJ	.	.	.	.	.	.	.	.	.	.
8E\	.	8cc\	16ee\LL	8E\	-da-	8c\	-da-	8g\	-da-	8ee\	-da-	8g/	8cc\
.	.	.	16gg\	.	.	.	.	.	.	.	.	.	.
8G\J	.	8b\J	16dd\	8G\	-m(us)	8B\	-mus	8g\	-mus	8dd\	-mus	8g/J	8dd\J
.	.	.	16gg\JJ	.	.	.	.	.	.	.	.	.	.
!LO:TX:a:t=P:mixed beam:problem	!	!	!	!	!	!	!	!	!	!	!	!	!
!	!	!	!	!	!	!	!	!	!	!	!	!LO:LB:g=original	!
8C\L	.	8cc\L	16ee\LL	8c\	te	8c,\	te	8e\	te	8cc\	te	8g/L	8ee\L
.	.	.	16gg\	.	.	.	.	.	.	.	.	.	.
8c\J	.	8ee\J	16ee\	16c\	be-	16e\	be-	16g\	be-	16g/	be-	8cc/	8ee\J
.	.	.	16gg\JJ	16c\	-ne-	16e\	-ne-	16g\	-ne-	16g/	-ne-	.	.
8B\L	6	8dd\L	16dd\LL	8B\	-di-	8d\	-di-	8d\	-di-	8g/	-di-	8g/	8dd\L
.	.	.	16gg\	.	.	.	.	.	.	.	.	.	.
16A\L	.	16cc\L	16dd\	16A\	-ci-	16c\	-ci-	16f\	-ci-	16g/	-ci-	8g/J	16cc\L
!	!	!	!	!	!	!	!	!	!	!LO:LB:g=original	!	!	!
16B\JJ	.	16dd\JJ	16gg\JJ	16B\	-mus	16B\	-mus	16d\	-mus	16g/	-mus	.	16dd\JJ
=21	=21	=21	=21	=21	=21	=21	=21	=21	=21	=21	=21	=21	=21
8c\	.	8ee\	16ee\LL	8c\	te	8G/	te	8c\	te	8e/	te	8cc\L	8ee\L
.	.	.	16gg\	.	.	.	.	.	.	.	.	.	.
!	!	!	!	!	!	!	!	!LO:LB:g=original	!	!	!	!	!
4E\	6	4cc\	16gg\	4E\	a-	4c\	a-	4g\	a-	4cc\	a-	8cc\J	8ee\J
.	.	.	16gg\JJ	.	.	.	.	.	.	.	.	.	.
.	.	.	16gg\LL	.	.	.	.	.	.	.	.	16cc\LL	16ee\LL
.	.	.	16ff\	.	.	.	.	.	.	.	.	16ee\	16gg\
!	!	!LO:LB:g=original	!	!	!	!	!	!	!	!	!	!	!
8C/	.	8ee\	16gg\	8C/	-do-	8e\	-do-	8g\	-do-	8cc\	-do-	16dd\	16ff\
.	.	.	16ee\JJ	.	.	.	.	.	.	.	.	16cc\JJ	16ee\JJ
!	!	!	!	!	!	!	!	!	!	!	!	!LO:TX:a:t=P:mixed beam:problem	!
8.G\L	.	8.dd\L	16dd\LL	8.G\	-ra-	8.d\	-ra-	8.g\	-ra-	8.b\	-ra-	8.cc\L	8.dd\L
.	.	.	16cc\	.	.	.	.	.	.	.	.	.	.
.	.	.	16b\	.	.	.	.	.	.	.	.	.	.
16G\K	.	16b\K	16cc\JJ	16G\	-m(us)	16d\	-mus	16d\	-mus	16b\	-mus	16g/K	16dd\Jk
8G\	.	8b\	16dd\LL	8G,\	te	8d\	te	8d,\	te	8b,\	te	8g/	8dd\L
.	.	.	16cc\	.	.	.	.	.	.	.	.	.	.
!	!	!	!	!	!	!LO:LB:g=original	!	!	!	!	!	!	!
8G\J	.	8dd\J	16b\	8G\	glo-	8B\	glo-	8g\	glo-	8dd\	glo-	8g/J	8dd\J
.	.	.	16dd\JJ	.	.	.	.	.	.	.	.	.	.
=22	=22	=22	=22	=22	=22	=22	=22	=22	=22	=22	=22	=22	=22
4.E\	6	4.cc\	16ee\LL	4.E\	-ri-	4.c\	-ri-	4.g\	-ri-	4.ee\	-ri-	8g/L	8ee\L
.	.	.	16cc\	.	.	.	.	.	.	.	.	.	.
.	.	.	16ee\	.	.	.	.	.	.	.	.	8g/	8cc\
.	.	.	16gg\JJ	.	.	.	.	.	.	.	.	.	.
.	.	.	16cc\LL	.	.	.	.	.	.	.	.	8cc/	8ee\
.	.	.	16ee\	.	.	.	.	.	.	.	.	.	.
8D/	6	8dd\	16dd\	8D/	-fi-	8d\	-fi-	8f\	-fi-	8ff\	-fi-	8dd/J	8ff\J
.	.	.	16ff\JJ	.	.	.	.	.	.	.	.	.	.
!	!	!	!	!LO:TX:a:t=P:mixed beam:problem	!	!	!	!	!	!	!	!	!
8C\L	.	8ee\L	16gg\LL	8C\L	-ca-	8e\L	-ca-	(8e\L	-ca-	8gg\L	-ca-	8ee\L	8gg\L
.	.	.	16gg\	.	.	.	.	.	.	.	.	.	.
8F\	6 5	16dd\L	16ff\	8F\J	.	16d\L	.	8a\J)	.	16ff\L	.	16dd\L	16ff\L
.	.	16cc\JJ	16ee\JJ	.	.	16c\JJ	.	.	.	16ee\JJ	.	16cc\JJ	16ee\JJ
!	!	!	!LO:LB:g=original	!	!	!	!	!	!	!	!	!	!
!LO:TX:a:t=P:mixed beam:problem	!	!	!	!	!	!	!	!	!	!	!	!	!
8G\	4	4dd\	16dd\LL	8.G\	.	8.c\	.	8.g\	.	8.dd\	.	8.g/L	8.dd\L
.	.	.	16gg\	.	.	.	.	.	.	.	.	.	.
8GG/J	3	.	16ff\	.	.	.	.	.	.	.	.	.	.
.	.	.	16gg\JJ	16GG/	-mus	16B\	-mus	16g\	-mus	16dd\	-mus	16g/Jk	16dd\Jk
=23	=23	=23	=23	=23	=23	=23	=23	=23	=23	=23	=23	=23	=23
!LO:TX:a:t=P:mixed beam:problem	!	!	!	!	!	!	!	!	!	!	!	!	!
8C/L	.	8ee\L	8ee\L	8C/	te	8c\	te	8g\	-te	8cc\	-te	8e/L	8cc\L
8r	.	8r	8r	8r	.	8r	.	8r	.	8r	.	8r	8r
8G\J	.	8b\J	8dd\J	8G\	te	8B\	te	8g\	te	8dd\	te	8g/J	8dd\J
8r	.	8r	8r	8r	.	8r	.	8r	.	8r	.	8r	8r
!	!	!	!	!	!	!	!	!	!	!	!	!	!LO:LB:g=original
!LO:TX:a:i:t=Solo	!	!	!	!	!	!	!	!	!	!	!	!LO:TX:a:t=P:mixed beam:problem	!
4C/	.	16cc\LL	16ee\LL	4C/	te	4c\	te	4g\	te	4ee\	te	8g/L	8ee\L
.	.	16ee\	16gg\	.	.	.	.	.	.	.	.	.	.
.	.	16ee\	16gg\	.	.	.	.	.	.	.	.	16ee\L	16gg\L
.	.	16dd\JJ	16ff\JJ	.	.	.	.	.	.	.	.	16dd\JJ	16ff\JJ
8r	.	16cc\LL	16ee\LL	4r	.	4r	.	4r	.	4r	.	16cc\LL	16ee\LL
.	.	16dd\	16ff\	.	.	.	.	.	.	.	.	16dd\	16ff\
8C/	.	16ee\	16gg\	.	.	.	.	.	.	.	.	16ee\	16gg\
.	.	16cc\JJ	16ee\JJ	.	.	.	.	.	.	.	.	16cc\JJ	16ee\JJ
=24	=24	=24	=24	=24	=24	=24	=24	=24	=24	=24	=24	=24	=24
!	!	!LO:TX:a:t=P:mixed beam:problem	!	!	!	!	!	!	!	!	!	!	!
4F\	.	16ff\LL	16aa\LL	1r	.	00r	.	00r	.	0r	.	4ff\	4aa\
.	.	16a/	16cc\	.	.	.	.	.	.	.	.	.	.
.	.	16a/	16cc\	.	.	.	.	.	.	.	.	.	.
.	.	16a/JJ	16cc\JJ	.	.	.	.	.	.	.	.	.	.
!	!	!LO:TX:a:t=P:mixed beam:problem	!	!	!	!	!	!	!	!	!	!	!
8r	.	16a/LL	16cc\LL	.	.	.	.	.	.	.	.	8r	8r
.	.	16ff\	16aa\	.	.	.	.	.	.	.	.	.	.
8F\	.	16ee\	16gg\	.	.	.	.	.	.	.	.	8ff\	8aa\
.	.	16ff\JJ	16ff\JJ	.	.	.	.	.	.	.	.	.	.
4C/	.	16ee\LL	16gg\LL	.	.	.	.	.	.	.	.	4ee\	4gg\
.	.	16ee\	16ee\	.	.	.	.	.	.	.	.	.	.
.	.	16ee\	16cc\	.	.	.	.	.	.	.	.	.	.
.	.	16ff\JJ	16dd\JJ	.	.	.	.	.	.	.	.	.	.
8r	.	16gg\LL	16ee\LL	.	.	.	.	.	.	.	.	16r	16r
.	.	16ee\	16gg\	.	.	.	.	.	.	.	.	16ee\LL	16gg\LL
8C/	.	16dd\	16ff\	.	.	.	.	.	.	.	.	16dd\	16ff\
.	.	16cc\JJ	16ee\JJ	.	.	.	.	.	.	.	.	16cc\JJ	16ee\JJ
!LO:LB:g=original	!	!	!	!	!	!	!	!	!	!	!	!	!
=25	=25	=25	=25	=25	=25	=25	=25	=25	=25	=25	=25	=25	=25
8D/L	.	16b/LL	16ff\LL	1r	.	.	.	.	.	.	.	16dd\LL	16ff\LL
.	.	16cc/	16ee\	.	.	.	.	.	.	.	.	16cc\	16ee\
8C/	.	16b/	16dd\	.	.	.	.	.	.	.	.	16g\	16dd\
.	.	16cc/JJ	16ee\JJ	.	.	.	.	.	.	.	.	16cc\JJ	16ee\JJ
8BB/	.	16dd\LL	16ff\LL	.	.	.	.	.	.	.	.	8dd\L	16ff\LL
.	.	16b\	16dd\	.	.	.	.	.	.	.	.	.	16dd\
8GG/J	7	16ee\	16gg\	.	.	.	.	.	.	.	.	16ee\L	16gg\
.	.	16dd\JJ	16ff\JJ	.	.	.	.	.	.	.	.	16dd\JJ	16ff\JJ
!	!	!	!	!	!	!	!	!	!	!	!	!LO:TX:a:t=P:mixed beam:problem	!LO:TX:a:t=P:mixed beam:problem
8C\L	.	16cc\LL	16ee\LL	.	.	.	.	.	.	.	.	8cc\L	8ee\L
.	.	16cc\	16ee\	.	.	.	.	.	.	.	.	.	.
8r	.	16ee\	16gg\	.	.	.	.	.	.	.	.	16g/L	16g/L
.	.	16cc\JJ	16ee\JJ	.	.	.	.	.	.	.	.	16g/JJ	16g/JJ
!	!	!	!	!	!	!	!	!	!	!	!	!LO:LB:g=original	!
8G\J	.	16b\LL	16dd\LL	.	.	.	.	.	.	.	.	16g/LL	16g/LL
.	.	16b\	16dd\	.	.	.	.	.	.	.	.	16g/	16g/
8r	.	16dd\	16b\	.	.	.	.	.	.	.	.	16g/	16g/
.	.	16b\JJ	16dd\JJ	.	.	.	.	.	.	.	.	16g/JJ	16g/JJ
!	!	!LO:LB:g=original	!	!	!	!	!	!	!	!	!	!	!
=26	=26	=26	=26	=26	=26	=26	=26	=26	=26	=26	=26	=26	=26
!LO:TX:a:t=P:mixed beam:problem	!	!	!	!	!	!	!	!	!	!	!	!	!
8C/L	.	16cc\LL	16ee\LL	1r	.	.	.	.	.	1r	.	4g/	4g/
.	.	16cc\	16ee\	.	.	.	.	.	.	.	.	.	.
8r	.	16ee\	16gg\	.	.	.	.	.	.	.	.	.	.
.	.	16cc\JJ	16ee\JJ	.	.	.	.	.	.	.	.	.	.
8G\J	.	16b\LL	16dd\LL	.	.	.	.	.	.	.	.	8r	8r
.	.	16b\	16dd\	.	.	.	.	.	.	.	.	.	.
8r	.	16dd\	16b\	.	.	.	.	.	.	.	.	8dd\	8dd\
.	.	16b\JJ	16dd\JJ	.	.	.	.	.	.	.	.	.	.
!LO:TX:a:t=P:mixed beam:problem	!	!	!	!	!	!	!	!	!	!	!	!	!
8C\L	6 5	16cc/LL	16ee\LL	.	.	.	.	.	.	.	.	8cc\L	8ee\L
.	.	16b/	16dd\	.	.	.	.	.	.	.	.	.	.
8AA\	.	16a/	16cc\	.	.	.	.	.	.	.	.	8cc\	8gg\
.	.	16g/JJ	16b\JJ	.	.	.	.	.	.	.	.	.	.
8D\	7 4	8g/L	8.a/L	.	.	.	.	.	.	.	.	8dd\	8gg\
8DD/J	# 3	8d/J	.	.	.	.	.	.	.	.	.	8dd\J	8ff#X\J
.	.	.	16a/Jk	.	.	.	.	.	.	.	.	.	.
!	!	!	!LO:LB:g=original	!	!	!	!	!	!	!	!	!	!
=27	=27	=27	=27	=27	=27	=27	=27	=27	=27	=27	=27	=27	=27
!LO:TX:a:t=P:mixed beam:problem	!	!	!	!	!	!	!	!	!	!	!	!	!
8GG/L	.	4d/	4b/	1r	.	.	.	.	.	4r	.	4dd\	4gg\
8AA/	.	.	.	.	.	.	.	.	.	.	.	.	.
!	!	!	!	!	!	!	!	!	!	!LO:TX:b:i:t=ſolo	!	!	!
8BB/	6	4r	4r	.	.	.	.	.	.	8dd\	Gra-	4r	4r
8G\J	.	.	.	.	.	.	.	.	.	16dd\	-ti-	.	.
.	.	.	.	.	.	.	.	.	.	16dd\	-as	.	.
8A\L	.	2r	2r	.	.	.	.	.	.	4.cc\	a-	2r	2r
8G\	.	.	.	.	.	.	.	.	.	.	.	.	.
8F#X\	.	.	.	.	.	.	.	.	.	.	.	.	.
8D\J	7	.	.	.	.	.	.	.	.	16dd\	-gi-	.	.
!	!	!	!	!	!	!	!	!	!	!LO:LB:g=original	!	!	!
.	.	.	.	.	.	.	.	.	.	16a\	-mus	.	.
=28	=28	=28	=28	=28	=28	=28	=28	=28	=28	=28	=28	=28	=28
8G\L	.	00r	00r	1r	.	00r	.	00r	.	8b\	ti-	00r	00r
8B\	.	.	.	.	.	.	.	.	.	8g/	-bi	.	.
8G\	.	.	.	.	.	.	.	.	.	8dd/	-ma-	.	.
8B\J	.	.	.	.	.	.	.	.	.	8dd\	.	.	.
4c\	.	.	.	.	.	.	.	.	.	16ee\LL	.	.	.
.	.	.	.	.	.	.	.	.	.	16dd\	.	.	.
.	.	.	.	.	.	.	.	.	.	16ee\	.	.	.
.	.	.	.	.	.	.	.	.	.	16dd\JJ	.	.	.
16A\LL	.	.	.	.	.	.	.	.	.	4cc\	.	.	.
16G\	.	.	.	.	.	.	.	.	.	.	.	.	.
16A\	.	.	.	.	.	.	.	.	.	.	.	.	.
16G\JJ	.	.	.	.	.	.	.	.	.	.	.	.	.
=29	=29	=29	=29	=29	=29	=29	=29	=29	=29	=29	=29	=29	=29
4F\	.	.	.	1r	.	.	.	.	.	16dd\LL	.	.	.
.	.	.	.	.	.	.	.	.	.	16cc\	.	.	.
.	.	.	.	.	.	.	.	.	.	16dd\	.	.	.
.	.	.	.	.	.	.	.	.	.	16cc\JJ	.	.	.
16G\LL	.	.	.	.	.	.	.	.	.	4b\	.	.	.
16F\	.	.	.	.	.	.	.	.	.	.	.	.	.
16G\	.	.	.	.	.	.	.	.	.	.	.	.	.
16F\JJ	.	.	.	.	.	.	.	.	.	.	.	.	.
4E\	.	.	.	.	.	.	.	.	.	16cc\LL	.	.	.
.	.	.	.	.	.	.	.	.	.	16b\	.	.	.
.	.	.	.	.	.	.	.	.	.	16cc\	.	.	.
.	.	.	.	.	.	.	.	.	.	16b\JJ	.	.	.
16F\LL	.	.	.	.	.	.	.	.	.	4a\	.	.	.
16E\	.	.	.	.	.	.	.	.	.	.	.	.	.
16F\	.	.	.	.	.	.	.	.	.	.	.	.	.
16E\JJ	.	.	.	.	.	.	.	.	.	.	.	.	.
=30	=30	=30	=30	=30	=30	=30	=30	=30	=30	=30	=30	=30	=30
!	!	!	!	!LO:TX:a:i:t=Solo	!	!	!	!	!	!	!	!	!
4D\	6	.	.	4r	.	.	.	.	.	16b\LL	.	.	.
.	.	.	.	.	.	.	.	.	.	16a\	.	.	.
.	.	.	.	.	.	.	.	.	.	16b\	.	.	.
.	.	.	.	.	.	.	.	.	.	16a\JJ	.	.	.
16E\LL	7	.	.	8A\	Do-	.	.	.	.	4g#X/	.	.	.
16D\	.	.	.	.	.	.	.	.	.	.	.	.	.
16C\	.	.	.	16A\	-mi-	.	.	.	.	.	.	.	.
16BB\JJ	.	.	.	16A,\	-ne	.	.	.	.	.	.	.	.
!LO:TX:a:t=P:mixed beam:problem	!	!	!	!	!	!	!	!	!	!	!	!	!
8AA/L	.	.	.	8B\	De-	.	.	.	.	8a\	.	.	.
8BB/	.	.	.	8B\	-us	.	.	.	.	8a,\	-gnam	.	.
8C/	.	.	.	8B\	Rex	.	.	.	.	8ee\	ma-	.	.
8G#X\J	6	.	.	8B\	cae-	.	.	.	.	8ee\	-gnam	.	.
!LO:LB:g=original	!	!	!	!	!	!	!	!	!	!	!	!	!
=31	=31	=31	=31	=31	=31	=31	=31	=31	=31	=31	=31	=31	=31
8A\L	.	.	.	8c\	-les-	.	.	.	.	16ee\LL	Glo-	.	.
.	.	.	.	.	.	.	.	.	.	16dd\	.	.	.
8B\	.	.	.	8c,\	-tis	.	.	.	.	16cc\	.	.	.
.	.	.	.	.	.	.	.	.	.	16b\JJ	.	.	.
8c\	.	.	.	8c\	De-	.	.	.	.	16a\LL	.	.	.
.	.	.	.	.	.	.	.	.	.	16ee\	.	.	.
8A\J	.	.	.	8B\	-us	.	.	.	.	16dd\	.	.	.
.	.	.	.	.	.	.	.	.	.	16ee\JJ	.	.	.
!LO:TX:a:t=P:mixed beam:problem	!	!	!	!	!	!	!	!	!	!	!	!	!
8D\L	6 5	.	.	8A\	Pa-	.	.	.	.	16ff\LL	.	.	.
.	.	.	.	.	.	.	.	.	.	16ee\JJ	.	.	.
8BB\	.	.	.	16D/	-ter	.	.	.	.	16dd\	-ri-	.	.
.	.	.	.	16D/	om-	.	.	.	.	16cc\	-am	.	.
8E\	.	.	.	8.E\	-ni-	.	.	.	.	4b\	tu-	.	.
8EE/J	7 #	.	.	.	.	.	.	.	.	.	.	.	.
.	.	.	.	16E\	-po-	.	.	.	.	.	.	.	.
!	!	!	!	!	!	!	!	!	!	!LO:LB:g=original	!	!	!
=32	=32	=32	=32	=32	=32	=32	=32	=32	=32	=32	=32	=32	=32
2AA/	.	4r	8r	4AA/	-tens	00r	.	0r	.	4cc\	-am	00r	00r
.	.	.	8r	.	.	.	.	.	.	.	.	.	.
.	.	8cc\L	16ee\LL	4r	.	.	.	.	.	4r	.	.	.
.	.	.	16ee\J	.	.	.	.	.	.	.	.	.	.
.	.	16cc\L	8ee\J	.	.	.	.	.	.	.	.	.	.
.	.	16cc\JJ	.	.	.	.	.	.	.	.	.	.	.
4A\	4 2	8dd\L	8dd\L	2r	.	.	.	.	.	2r	.	.	.
.	.	8dd\	8dd\	.	.	.	.	.	.	.	.	.	.
4G#X\	6 5	8b\	8dd\	.	.	.	.	.	.	.	.	.	.
.	.	8b\J	8dd\J	.	.	.	.	.	.	.	.	.	.
=33	=33	=33	=33	=33	=33	=33	=33	=33	=33	=33	=33	=33	=33
4A\	.	8a/L	8cc\L	1r	.	.	.	.	.	1r	.	.	.
.	.	8a/	8ee\	.	.	.	.	.	.	.	.	.	.
8AA/L	.	8a/	8ee\	.	.	.	.	.	.	.	.	.	.
8BB/J	6\	8g/J	8dd\J	.	.	.	.	.	.	.	.	.	.
!LO:TX:a:t=P:mixed beam:problem	!	!	!	!	!	!	!	!	!	!	!	!	!
8C\L	6	16a/LL	16cc\LL	.	.	.	.	.	.	.	.	.	.
.	.	16cc/	16ee\	.	.	.	.	.	.	.	.	.	.
8D\	6 5	16b/	16dd\	.	.	.	.	.	.	.	.	.	.
.	.	16a/JJ	16cc\JJ	.	.	.	.	.	.	.	.	.	.
8E\	x 4	8.a/L	8.b/L	.	.	.	.	.	.	.	.	.	.
8EE/J	# 3	.	.	.	.	.	.	.	.	.	.	.	.
.	.	16g/Jk	16b/Jk	.	.	.	.	.	.	.	.	.	.
=34	=34	=34	=34	=34	=34	=34	=34	=34	=34	=34	=34	=34	=34
8AA/L	.	4a/	4cc\	1r	.	.	.	4r	.	4r	.	.	.
8BB/	.	.	.	.	.	.	.	.	.	.	.	.	.
8C/	.	4r	4r	.	.	.	.	8a\	Do-	8cc\	Do-	.	.
8AA/J	.	.	.	.	.	.	.	16a\	-mi-	16cc\	-mi-	.	.
.	.	.	.	.	.	.	.	16a,\	-ne	16cc\	-ne	.	.
8E\L	.	2r	2r	.	.	.	.	8g#X\	Fi-	8b,\	Fi-	.	.
8F#X\	.	.	.	.	.	.	.	8g#\	-li	8b\	-li	.	.
!	!	!	!	!	!	!	!	!LO:LB:g=original	!	!	!	!	!
8G#X\	6	.	.	.	.	.	.	(16g#\LL	u-	(16b\LL	u-	.	.
.	.	.	.	.	.	.	.	16a\JJ)	.	16cc\JJ)	.	.	.
8E\J	.	.	.	.	.	.	.	(16f\LL	-ni-	(16a\LL	-ni-	.	.
.	.	.	.	.	.	.	.	16g#\JJ)	.	16b\JJ)	.	.	.
=35	=35	=35	=35	=35	=35	=35	=35	=35	=35	=35	=35	=35	=35
!LO:TX:a:t=P:mixed beam:problem	!	!	!	!	!	!	!	!	!	!	!	!	!
8AA/L	.	1r	1r	1r	.	.	.	8a\	-ge-	8cc\	-ge-	.	.
8A\	.	.	.	.	.	.	.	16a\	-ni-	16cc\	-ni-	.	.
.	.	.	.	.	.	.	.	16a\	-te	16cc\	-te	.	.
8G#X\	6	.	.	.	.	.	.	8e\	Je-	8b,\	Je-	.	.
8E\J	.	.	.	.	.	.	.	8g#X\	-su	8b\	-su	.	.
!LO:TX:a:t=P:mixed beam:problem	!	!	!	!	!	!	!	!	!	!	!	!	!
8A\L	6 5	.	.	.	.	.	.	8f#X\	Je-	16cc,\LL	Je-	.	.
.	.	.	.	.	.	.	.	.	.	16dd\JJ	.	.	.
8F#X\	.	.	.	.	.	.	.	8f#,\	-su	16ee\LL	-ſu	.	.
.	.	.	.	.	.	.	.	.	.	16ff\JJ	.	.	.
8B\	x 4	.	.	.	.	.	.	4f#\	-Chriſ-	4dd#X\	-Chriſ-	.	.
8BB/J	# 3	.	.	.	.	.	.	.	.	.	.	.	.
=36	=36	=36	=36	=36	=36	=36	=36	=36	=36	=36	=36	=36	=36
8E\L	.	4r	4r	1r	.	00r	.	4g\	-te	4ee\	-te	00r	00r
8F#X\	.	.	.	.	.	.	.	.	.	.	.	.	.
8G#X\	6	8gg\L	8bb\L	.	.	.	.	4r	.	4r	.	.	.
8E\J	.	8gg\J	16bb\L	.	.	.	.	.	.	.	.	.	.
.	.	.	16bb\JJ	.	.	.	.	.	.	.	.	.	.
!	!	!LO:TX:a:t=P:mixed beam:problem	!	!	!	!	!	!	!	!	!	!	!
4E\	4 2	8aa\L	8aa\L	.	.	.	.	2r	.	2r	.	.	.
.	.	8b/	8aa\	.	.	.	.	.	.	.	.	.	.
4D#X\	6 5	8b/	8aa\	.	.	.	.	.	.	.	.	.	.
.	.	8b/J	8aa\J	.	.	.	.	.	.	.	.	.	.
=37	=37	=37	=37	=37	=37	=37	=37	=37	=37	=37-	=37	=37	=37
4E\	.	8b/L	8gg#X\L	8E\	Do-	.	.	0r	.	0r	.	.	.
.	.	8b/	8gg#\	16E\	-mi-	.	.	.	.	.	.	.	.
.	.	.	.	16E\	-ne	.	.	.	.	.	.	.	.
4G#X\	6	8b/	8gg#\	8F\	De-	.	.	.	.	.	.	.	.
.	.	8b/J	8ee\J	8F,\	-us	.	.	.	.	.	.	.	.
!LO:TX:a:t=P:mixed beam:problem	!	!	!	!	!	!	!	!	!	!	!	!	!
8A\L	.	16a/LL	16ee\LL	8F\	a-	.	.	.	.	.	.	.	.
.	.	16cc/	16ee\	.	.	.	.	.	.	.	.	.	.
8D\	6 5	16b/	16dd\	8F\	-gnus	.	.	.	.	.	.	.	.
.	.	16a/JJ	16cc\JJ	.	.	.	.	.	.	.	.	.	.
!	!	!LO:LB:g=original	!	!	!	!	!	!	!	!	!	!	!
8E\	7 4	8.a/L	8.b/L	8G\	De-	.	.	.	.	.	.	.	.
8EE/J	# 3	.	.	8E\	-i	.	.	.	.	.	.	.	.
.	.	16g/Jk	16b/Jk	.	.	.	.	.	.	.	.	.	.
!LO:LB:g=original	!	!	!	!	!	!	!	!	!	!	!	!	!
=38	=38	=38	=38	=38	=38	=38	=38	=38	=38	=38	=38	=38	=38
8AA/L	.	16a\LL	16cc\LL	8E\	Fi-	.	.	.	.	.	.	.	.
.	.	16cc\	16ee\	.	.	.	.	.	.	.	.	.	.
8r	.	16b\	16dd\	16G\	-li-	.	.	.	.	.	.	.	.
.	.	16cc\JJ	16ee\JJ	16G\	-us	.	.	.	.	.	.	.	.
!	!	!	!LO:LB:g=original	!	!	!	!	!	!	!	!	!	!
8D/J	.	16dd\LL	16ff\LL	(8A\L	Pa-	.	.	.	.	.	.	.	.
.	.	16dd\	16ff\	.	.	.	.	.	.	.	.	.	.
8r	.	16cc\	16ee\	8D\J)	.	.	.	.	.	.	.	.	.
.	.	16dd\JJ	16ff\JJ	.	.	.	.	.	.	.	.	.	.
8AA/L	.	16cc\LL	16ee\LL	4E\	.	.	.	.	.	.	.	.	.
.	.	16cc\	16ee\	.	.	.	.	.	.	.	.	.	.
8r	.	16b\	16dd\	.	.	.	.	.	.	.	.	.	.
.	.	16cc\JJ	16ee\JJ	.	.	.	.	.	.	.	.	.	.
8BB/	.	16b/LL	16dd\LL	4AA/	-tris	.	.	.	.	.	.	.	.
.	.	16b/	16dd\	.	.	.	.	.	.	.	.	.	.
8E/J	7	16a/	16cc\	.	.	.	.	.	.	.	.	.	.
.	#	16b/JJ	16dd\JJ	.	.	.	.	.	.	.	.	.	.
=39	=39	=39	=39	=39	=39	=39	=39	=39	=39	=39	=39	=39	=39
8A\L	.	16a/LL	16cc\LL	1r	.	.	.	1r	.	1r	.	.	.
.	.	16a/	16cc\	.	.	.	.	.	.	.	.	.	.
8r	.	16g/	16b\	.	.	.	.	.	.	.	.	.	.
.	.	16a/JJ	16cc\JJ	.	.	.	.	.	.	.	.	.	.
8E\J	#	16g#X/LL	16b\LL	.	.	.	.	.	.	.	.	.	.
.	.	16g#/	16b\	.	.	.	.	.	.	.	.	.	.
8r	.	16f#X/	16a\	.	.	.	.	.	.	.	.	.	.
.	.	16g#/JJ	16b\JJ	.	.	.	.	.	.	.	.	.	.
!LO:TX:a:t=P:mixed beam:problem	!	!	!	!	!	!	!	!	!	!	!	!	!
8A\L	.	16a/LL	16cc\LL	.	.	.	.	.	.	.	.	.	.
.	.	16cc/	16ee\	.	.	.	.	.	.	.	.	.	.
8D\	6 5	16b/	16dd\	.	.	.	.	.	.	.	.	.	.
.	.	16a/JJ	16cc\JJ	.	.	.	.	.	.	.	.	.	.
8E\	7 #	8a/L	8.b\L	.	.	.	.	.	.	.	.	.	.
8EE/J	.	8g#X/J	.	.	.	.	.	.	.	.	.	.	.
.	.	.	16b\Jk	.	.	.	.	.	.	.	.	.	.
!	!	!	!	!	!	!	!	!	!	!	!	!	!LO:TX:b:t=Verte Cito
!	!	!	!	!	!	!	!	!	!	!	!	!	!LO:PB:g=original
=40	=40	=40	=40	=40	=40	=40	=40	=40	=40	=40-	=40	=40	=40
!LO:TX:b:t=Tut	!	!	!	!	!	!	!	!	!	!	!	!	!
!LO:TX:a:t=P:mixed beam:problem	!	!	!	!	!	!	!	!	!	!	!	!	!
8AA/L	.	8a/L	8cc\L	8r	.	8r	.	8r	.	8r	.	8r	8r
8A\J	.	8a/J	8cc\J	8A\	Qui	8c\	qui	8e\	Qui	8b\	Qui	8e/L	8e/L
!	!	!	!	!	!	!	!	!	!	!LO:LB:g=original	!	!	!
8G#X\L	.	8b/L	16ee\LL	8G#X\	tol-	8B/	tol-	8e\	tol-	8b\	tol-	8e/	8e/
.	.	.	16ee\	.	.	.	.	.	.	.	.	.	.
16F#X\L	.	16a/L	16ee\	16F,\	-lis	16A/	-lis	16f#X,\	-lis	16a\	-lis	8e/J	8e/J
16G#\JJ	.	16b/JJ	16ee\JJ	16G#\	pec-	16G/	pec-	16e\	pec-	16b\	pec-	.	.
4A\	.	8cc\L	8cc\L	4A\	-ca-	4c\	-ca-	4e\	-ca-	8cc\	-ca-	8e/L	8e/L
.	.	8cc\	8cc\	.	.	.	.	.	.	4cc\	-ta	16e/L	16e/L
.	.	.	.	.	.	.	.	.	.	.	.	16e/JJ	16e/JJ
8A\L	.	8cc\	8ee\	8A\	-ta	8A,/	-ta	8c\	-ta	.	.	8e/	8e/
8G#X\J	6	8b\J	8ee\J	8G#\	pec-	8B\	pec-	8e\	pec-	8b\	pec-	8r	8r
=41	=41	=41	=41	=41	=41	=41	=41	=41	=41	=41	=41	=41	=41
!LO:TX:a:t=P:mixed beam:problem	!	!	!	!	!	!	!	!	!	!	!	!	!
8A\L	6 5	4a/	8ee\L	8A\	-ca-	8A/	-ca-	8f#X\	-ca-	8cc\	-ca-	1r	1r
!	!	!	!	!	!	!LO:LB:g=original	!	!	!	!	!	!	!
8F#X\	.	.	8ee\	8F,\	-ta	8A,/	-ta	8f#,\	-ta	8ee,\	-ta	.	.
!	!	!	!	!LO:TX:a:t=P:mixed beam:problem	!	!	!	!	!	!	!	!	!
8B\	7 4#	8b/L	8ee\	8B\L	mun-	4B\	mun-	4f#\	mun-	(8ee\L	mun-	.	.
8BB/J	.	8b/J	8dd#X\J	8BB\J	.	.	.	.	.	8dd#X\J)	.	.	.
!	!	!	!	!	!	!	!	!LO:LB:g=original	!	!	!	!	!
8E\	#	8b/	8ee\	8E\	-di	8B,\	-di	8f#\	-di	8ee\	-di	.	.
4E\	.	4gg#X\	4bb\	4E\	Mi-	4G/	Mi-	4g#X\	Mi-	4ee\	Mi-	.	.
8F#X\	6\	8ff#X\	8aa\	8F\	-ſe-	8A/	-ſe-	8f#\	-ſe-	8dd#\	-ſe-	.	.
=42	=42	=42	=42	=42	=42	=42	=42	=42	=42	=42	=42	=42	=42
8G#X\	.	8ee\	8gg#X\	4.G#X\	-re-	4.B\	-re-	4.e\	-re-	4.ee\	-re-	8r	8r
4G#\	.	4ee\	4ee\	.	.	.	.	.	.	.	.	8e/L	8e/L
.	.	.	.	.	.	.	.	.	.	.	.	8e/	8e/
8E\	.	8ee\	8ee\	8E\	-re	8B\	-re	8g\	-re	8b\	-re	8e/J	8e/J
!	!	!	!	!LO:LB:g=original	!	!	!	!	!	!	!	!	!
!LO:TX:a:t=P:mixed beam:problem	!	!	!	!	!	!	!	!	!	!	!	!	!
8A\L	.	8cc/L	8ee\L	(8A\	no-	(4.A/	no-	(8a\L	no-	16cc\LL	no-	16e/LL	16e/LL
.	.	.	.	.	.	.	.	.	.	16ee\	.	16e/	16e/
8D\	6 5	16b/L	16dd\L	8D\)	.	.	.	8f\J)	.	16dd\	.	16e/	16e/
.	.	16a/JJ	16cc\JJ	.	.	.	.	.	.	16cc\JJ	.	16e/JJ	16e/JJ
!	!	!LO:LB:g=original	!	!	!	!	!	!	!	!	!	!	!
8E\	7 4	8a/L	8.b\L	4E\	.	.	.	4e\	.	4b\	.	16e/LL	16e/LL
.	.	.	.	.	.	.	.	.	.	.	.	16e/	16e/
8EE/J	# 3	8g#X/J	.	.	.	8G#X/)	.	.	.	.	.	16e/	16e/
.	.	.	16b\Jk	.	.	.	.	.	.	.	.	16e/JJ	16e/JJ
!	!	!	!LO:LB:g=original	!	!	!	!	!	!	!	!	!	!
=43	=43	=43	=43	=43	=43	=43	=43	=43	=43	=43	=43	=43	=43
4AA/	.	4a/	4cc\	4AA/	-bis	4A,/	-bis	4e,\	-bis	4a\	-bis	4e/	4e/
*clefC4	*	*	*	*	*	*	*	*	*	*	*	*	*
4A/	.	4r	4r	4r	.	4A/	qui	4a\	qui	4ee\	qui	4r	4r
!LO:LB:g=original	!	!	!	!	!	!	!	!	!	!	!	!	!
4B\	7	2r	2r	2r	.	4B\	tol-	4a\	tol-	4dd\	tol-	2r	2r
8B\L	6\	.	.	.	.	8B\	-lis	8g\	-lis	8dd\	-lis	.	.
8B\J	.	.	.	.	.	8B\	pec-	8g\	pec-	8dd\	pec-	.	.
=44	=44	=44	=44	=44	=44	=44	=44	=44	=44	=44	=44	=44	=44
8c\L	6_	0r	0r	00r	.	8c\L	-ca-	8a\L	-ca-	4.cc\	-ca-	00r	00r
8A\	.	.	.	.	.	8A\J	.	8cc\J	.	.	.	.	.
8c\	.	.	.	.	.	8c\L	-ta	8a,\	-ta	.	.	.	.
8d\J	6 5	.	.	.	.	8d\J	.	8a\	qui	8b\	-ta	.	.
!	!	!	!	!	!	!	!	!	!	!LO:LB:g=original	!	!	!
4e\	#	.	.	.	.	4e\	mun-	4g#X\	tol-	4b\	mun-	.	.
4e\	.	.	.	.	.	8e,\	-di	8g#\	-lis	8b,\	-di	.	.
.	.	.	.	.	.	8e\	qui	8g#\	pec-	8b\	qui	.	.
=45	=45	=45	=45	=45	=45	=45	=45	=45	=45	=45	=45	=45	=45
4c\	.	.	.	.	.	4c\	tol-	4a\	-ca-	4cc\	tol-	.	.
8A\L	.	.	.	.	.	8A\	-lis	8e,\	-ta	8cc,\	-lis	.	.
8c\J	.	.	.	.	.	8c\	pec-	8a\	pec-	8ee\	pec-	.	.
!	!	!	!	!	!	!LO:LB:g=original	!	!	!	!	!	!	!
8d\L	.	.	.	.	.	8d\	-ca-	8a\	-ca-	8ff\	-ca-	.	.
8c\J	6	.	.	.	.	8c\	-ta	8a\	-ta	8ee\	-ta	.	.
!	!	!	!	!	!	!	!	!LO:LB:g=original	!	!	!	!	!
4B\	7	.	.	.	.	4B\	mun-	8a\L	mun-	4dd\	mun-	.	.
.	6\	.	.	.	.	.	.	8g\J	.	.	.	.	.
=46	=46	=46	=46	=46	=46	=46	=46	=46	=46	=46	=46	=46	=46
4A/	.	16r	16r	.	.	4A/	-di	4a\	-di	4cc\	-di	.	.
.	.	16cc\LL	16ee\LL	.	.	.	.	.	.	.	.	.	.
.	.	16cc\	16ee\	.	.	.	.	.	.	.	.	.	.
.	.	16cc\JJ	16ee\JJ	.	.	.	.	.	.	.	.	.	.
*clefF4	*	*	*	*	*	*	*	*	*	*	*	*	*
4A\	.	16a/LL	16cc\LL	.	.	4r	.	4r	.	4r	.	.	.
.	.	16cc/	16ee\	.	.	.	.	.	.	.	.	.	.
.	.	16cc/	16ee\	.	.	.	.	.	.	.	.	.	.
.	.	16cc/JJ	16ee\JJ	.	.	.	.	.	.	.	.	.	.
4B\	.	16b/LL	16dd\LL	.	.	2r	.	2r	.	2r	.	.	.
.	.	16b/	16dd\	.	.	.	.	.	.	.	.	.	.
.	.	16g#X/	16b\	.	.	.	.	.	.	.	.	.	.
.	.	16b/JJ	16dd\JJ	.	.	.	.	.	.	.	.	.	.
8r	.	16b/LL	16dd\LL	.	.	.	.	.	.	.	.	.	.
.	.	16b/	16dd\	.	.	.	.	.	.	.	.	.	.
8E\	#	16a/	16cc\	.	.	.	.	.	.	.	.	.	.
.	.	16b/JJ	16dd\JJ	.	.	.	.	.	.	.	.	.	.
=47	=47	=47	=47	=47	=47	=47	=47	=47	=47	=47-	=47	=47	=47
!LO:TX:a:t=P:mixed beam:problem	!	!	!	!	!	!	!	!LO:SIC:o=:v:brakujący takt	!	!	!	!	!
8A\L	.	16cc/LL	16ee\LL	.	.	1r	.	1ryy	.	1r	.	.	.
.	.	16cc/	16ee\	.	.	.	.	.	.	.	.	.	.
8D\	6 5	16b/	16dd\	.	.	.	.	.	.	.	.	.	.
.	.	16a/JJ	16cc\JJ	.	.	.	.	.	.	.	.	.	.
8E/	4	8.a/L	8.b\L	.	.	.	.	.	.	.	.	.	.
.	3	.	.	.	.	.	.	.	.	.	.	.	.
8EE/J	#	.	.	.	.	.	.	.	.	.	.	.	.
.	.	16g#X/Jk	16b\Jk	.	.	.	.	.	.	.	.	.	.
4AA/	.	4a/	4cc\	.	.	.	.	.	.	.	.	.	.
4r	.	4r	4r	.	.	.	.	.	.	.	.	.	.
=48||	=48||	=48||	=48||	=48||	=48||	=48||	=48||	=48||	=48||	=48||	=48||	=48||	=48||
*M3/2	*	*M3/2	*M3/2	*M3/2	*	*M3/2	*	*M3/2	*	*M3/2	*	*M3/2	*M3/2
!LO:TX:b:i:t=Suscipe	!	!	!	!	!	!	!	!	!	!	!	!	!
!LO:TX:a:B:t=adagio	!	!LO:TX:b:i:t=Suscipe	!LO:TX:b:i:t=Suscipe	!	!	!	!	!	!	!	!	!LO:TX:b:i:t=Suscipe	!LO:TX:b:i:t=Suscipe
2.E\	#	2.ee\	2.gg#X\	2.E\	Sus-	2.B\	Sus-	2.g#X\	Sus-	2.b\	Sus-	2e/	2e/
.	.	.	.	.	.	.	.	.	.	.	.	4e/	4e/
!LO:TX:b:i:t=Tut	!	!	!	!	!	!	!	!	!	!	!	!	!
4E\	.	4b\	4gg#\	4E\	-ci-	4e\	-ci-	4g#\	-ci-	4b\	-ci-	4e/	4e/
2E\	.	2ee\	2gg#\	2E\	-pe	2B\	-pe	2g#\	-pe	2b\	-pe	4e/	4e/
.	.	.	.	.	.	.	.	.	.	.	.	4e/	4e/
!	!	!	!	!	!	!	!	!	!	!	!	!LO:LB:g=original	!
=49	=49	=49	=49	=49	=49	=49	=49	=49	=49	=49	=49	=49	=49
*	*	*	*	*	*ij	*	*ij	*	*ij	*	*ij	*	*
2.C/	6	2.ee\	2.aa\	2.C/	Sus-	2.A/	Sus-	2.e\	Sus-	2.cc\	Sus-	2.e/	2e/
.	.	.	.	.	.	.	.	.	.	.	.	.	4e/
4BB/	6\	4dd\	4gg\	4BB/	-ci-	4B\	-ci-	4d\	-ci-	4dd\	-ci-	4e/	4e/
2AA/	.	2cc\	2aa\	2AA/	-pe	2c\	-pe	2c/	-pe	2ee\	-pe	2e/	2e/
*	*	*	*	*	*Xij	*	*Xij	*	*Xij	*	*Xij	*	*
!	!	!	!	!	!	!	!	!	!	!	!	!	!LO:LB:g=original
=50	=50	=50	=50	=50	=50	=50	=50	=50	=50	=50	=50	=50	=50
2.D#X/	6_ 5_	2.ff#X\	2.aa\	2.D#X/	de-	2.B\	de-	2.f#X\	de-	2.ff\	de-	00.r	00.r
4D#/	.	4ff#\	4aa\	4D#/	-pre-	4B\	-pre-	4f#\	-pre-	4ff\	-pre-	.	.
2D#/	.	4ff#\	4aa\	4D#/	-ca-	4B\	-ca-	4f#\	-ca-	4ff\	-ca-	.	.
.	x	4ff#\	4aa\	4D#/	-ti-	4B\	-ti-	4f#\	-ti-	4ff\	-ti-	.	.
!LO:LB:g=original	!	!	!	!	!	!	!	!	!	!LO:PB:g=original	!	!	!
=51	=51	=51	=51	=51	=51	=51	=51	=51	=51	=51	=51	=51	=51
1E\	#	1ee\	1gg#X\	1E\	-o-	1B\	-o-	1g\	-o-	1ee\	-o-	.	.
2E\	.	2gg#X\	2gg#\	2E\	-nem	2B\	-nem	2g\	-nem	2b\	-nem	.	.
!	!	!	!LO:PB:g=original	!	!	!	!	!	!	!	!	!	!
=52	=52	=52	=52-	=52	=52	=52	=52	=52	=52	=52	=52	=52	=52
*	*	*	*	*	*ij	*	*	*	*	*	*	*	*
2.A#X\	6_ 5_	2.aa\	2.ee\	2.A#X\	de-	2.c\	de-	2.f\	de-	2.cc\	de-	.	.
4A#\	.	4cc\	4ee\	4A#\	-pre-	4e\	-pre-	4f\	-pre-	4cc\	-pre-	.	.
!	!	!LO:LB:g=original	!	!	!	!	!	!	!	!	!	!	!
!	!	!	!	!	!	!	!	!LO:SIC:o:s=:v:krzyżyk nad i między dźwiękami	!	!	!	!	!
2A#\	.	2cc\	4ee\	4A#\	-ca-	4e\	-ca-	4f\	-ca-	4cc\	-ca-	.	.
.	x	.	4ee\	4A#\	-ti-	4e\	-ti-	4f\	-ti-	4cc\	-ti-	.	.
!	!	!	!	!	!	!LO:LB:g=original	!	!	!	!	!	!	!
=53	=53	=53	=53	=53	=53	=53	=53	=53	=53	=53	=53	=53	=53
1B\	#	1dd#X\	1dd#X\	1B\	-o-	1d#X\	-o-	1f#X\	-o-	1dd#X\	-o-	.	.
2E\	#	2b/	2ee\	2E\	-nem	2B\	-nem	2g\	-nem	2ee,\	-nem	.	.
*	*	*	*	*	*Xij	*	*	*	*	*	*	*	*
!	!	!	!	!LO:LB:g=original	!	!	!	!LO:LB:g=original	!	!	!	!	!
=54	=54	=54	=54	=54	=54	=54	=54	=54	=54	=54	=54	=54	=54
2A\	6 5	2cc\	1ee\	(2A\	no-	(2c\	no-	1.f\	no-	1ee\	no-	0.r	0.r
2B\	.	2b/	.	2B\	.	1B\)	.	.	.	.	.	.	.
.	4	.	.	.	.	.	.	.	.	.	.	.	.
2BB/	3	2b/	2dd#X\	2BB/)	.	.	.	.	.	2dd#X,\	-ſtram	.	.
.	#	.	.	.	.	.	.	.	.	.	.	.	.
=55	=55	=55	=55	=55	=55	=55	=55	=55	=55	=55	=55	=55	=55
2E\	.	2b/	2ee\	2E\	-stram	2B\	-ſtram	2g,\	-ſtram	2ee\	de-	.	.
*	*	*	*	*	*ij	*	*	*	*	*	*	*	*
2E\	.	2gg#X\	2bb\	2E\	de-	2B\	-de-	2g\	-de-	2b\	-pre-	.	.
2F#X\	6	2ff#X\	2aa\	2F\	-pre-	2A/	-pre-	2f#X\	-pre-	2dd#X\	-ca-	.	.
=56	=56	=56	=56	=56	=56	=56	=56	=56	=56	=56	=56	=56	=56
2G\	.	2ee\	2gg\	2G#X\	-ca-	(2G/	-ca-	2e\	-ca-	2ee\	-ti-	1.r	1.r
2F#X\	6\	2ff#X\	2aa\	2F\	-ti-	2A/)	.	2f#X\	-ti-	2dd#X\	-o-	.	.
2E\	#	2gg#X\	2bb\	2E\	-o-	2B\	-ti-	2g\	-o-	2ee\	-nem	.	.
=57	=57	=57	=57	=57	=57	=57	=57	=57	=57	=57	=57	=57	=57
1A\	.	1aa\	1aa\	1A\	.	1c\	-o-	1e\	-nem	1ee\	o-	2r	2r
.	.	.	.	.	.	.	.	.	.	.	.	2e/	2e/
2C/	6	2ee\	2aa\	2C/	-nem	2c\	-nem	2e\	no-	2ee\	-nem	2e/	2e/
*	*	*	*	*	*Xij	*	*	*	*	*	*	*	*
=58	=58	=58	=58	=58	=58	=58	=58	=58	=58	=58	=58	=58	=58
2D/	6 5	4dd\	1aa\	2D\	no-	(<1A\	no-	2f#X\	.	4dd\	no-	2e/	2e/
.	.	4cc\	.	.	.	.	.	.	.	4cc\	.	.	.
2E\	7 4	2.b\	.	1E\	.	.	.	1e\	.	2.b\	.	4e/	4e/
.	.	.	.	.	.	.	.	.	.	.	.	4e/	4e/
2EE/	# 3	.	2gg\	.	.	2G#X/)	.	.	.	.	.	4e/	4e/
.	.	4b\	.	.	.	.	.	.	.	8a\L	.	4e/	4e/
.	.	.	.	.	.	.	.	.	.	8b\J	.	.	.
=59	=59	=59	=59	=59	=59	=59	=59	=59	=59	=59	=59	=59	=59
1.AA/	.	1.cc\	1.aa\	1.AA/	-ſtram	1.A\	-ſtram	1.e\	-stram	1.cc\	-stram	1.e/	1.e/
!LO:PB:g=original	!	!	!	!	!	!	!	!	!	!LO:LB:g=original	!	!	!
=60||	=60||	=60||	=60||	=60||	=60||	=60||	=60||	=60||	=60||	=60||	=60||	=60||	=60||
*M2/2	*	*M2/2	*M2/2	*M2/2	*	*M2/2	*	*M2/2	*	*M2/2	*	*M2/2	*M2/2
*met(c|)	*	*met(c|)	*met(c|)	*met(c|)	*	*met(c|)	*	*met(c|)	*	*met(c|)	*	*met(c|)	*met(c|)
!LO:TX:b:i:t=Qui ſedes	!	!LO:TX:a:B:t=allabreve	!LO:TX:b:i:t=Qui ſedes	!	!	!	!	!	!	!	!	!LO:TX:b:i:t=Qui ſedes	!
!LO:TX:a:B:t=allbre	!	!LO:TX:b:i:t=Qui ſedes	!LO:TX:a:B:t=allabreve	!	!	!LO:TX:a:B:t=allabreve	!	!LO:TX:a:B:t=allabre	!	!LO:TX:a:B:t=allbre(ve)	!	!LO:TX:a:B:t=allabreve	!LO:TX:b:i:t=Qui ſedes
1C/	.	1ee\	1gg\	1C/	-Qui	1e\	-Qui	1g\	Qui	1cc\	Qui	00r	00r
!LO:TX:b:i:t=Tut	!	!	!	!	!	!	!	!	!	!	!	!	!
=61	=61	=61	=61	=61	=61	=61	=61	=61	=61	=61	=61	=61	=61
1D\	7	2dd\	1ff\	1D\	ſe-	2d\	ſe-	1f\	ſe-	2cc\	ſe-	.	.
.	6	2b\	.	.	.	2B\	-des	.	.	2b\	-des	.	.
=62	=62	=62	=62	=62	=62	=62	=62	=62	=62	=62	=62	=62	=62
2C/	.	2cc\	2ee\	2C/	-des	2G/	ad	2e,\	-des	2cc\	ad	.	.
2C/	.	2ee\	2gg\	2C/	ad	2c\	dex-	2g\	ad	2ee\	dex-	.	.
!	!	!	!	!	!	!LO:LB:g=original	!	!	!	!	!	!	!
=63	=63	=63	=63	=63	=63	=63	=63	=63	=63	=63	=63	=63	=63
2E\	.	2ee\	2cc\	2E\	dex-	2c\	-te-	2g\	dex-	2ee\	-te-	.	.
2F#X\	.	2dd\	2cc\	4F#X\	-te-	4A,/	-ram	4a\	-te-	2dd\	-ram	.	.
.	.	.	.	4F#\	-ram	4A/	Pa-	4a\	-ram	.	.	.	.
!	!	!	!	!	!	!	!	!LO:PB:g=original	!	!	!	!	!
=64	=64	=64	=64	=64	=64	=64	=64	=64	=64	=64	=64	=64	=64
4G\	.	(1dd\	2b\	(4G\	Pa-	2c\	.	1g\	Pa-	1b\	Pa-	0r	0r
4D\	6 5 4	.	.	4D/)	.	.	.	.	.	.	.	.	.
!	!	!	!	!LO:PB:g=original	!	!	!	!	!	!	!	!	!
[2G\	3	.	2cc\	[2G\	.	2d,\	-tris	.	.	.	.	.	.
!	!	!	!LO:PB:g=original	!	!	!	!	!	!	!	!	!	!
=65	=65	=65	=65	=65	=65	=65	=65	=65	=65	=65	=65	=65	=65
2G\]	4 2	1cc\)	2cc\	2G\]	.	2d\	qui	1a\	.	1a\	-tris	.	.
2F#X\	6 5	.	2dd\	2F#X\	.	2B\	ſe-	.	.	.	.	.	.
!	!	!LO:PB:g=original	!	!	!	!	!	!	!	!	!	!	!
=66	=66	=66	=66	=66	=66	=66	=66	=66	=66	=66	=66	=66	=66
2G\	.	2b/	4dd\	2G\	-tris	1G/	-des	2g,\	-tris	2b,\	ad	2r	2r
.	.	.	4cc\	.	.	.	.	.	.	.	.	.	.
*	*	*	*	*	*	*	*	*	*	*	*	*	*2\right
2G\	.	2b/	4dd\	2G\	ad	.	.	2b\	ad	2b\	dex-	2g/	2dd\
.	.	.	4b\	.	.	.	.	.	.	.	.	.	.
=67	=67	=67	=67	=67	=67	=67	=67	=67	=67	=67	=67	=67	=67
4E\	6	2g/	2.cc\	(4E\	dex-	2c\	ad	4g\	dex-	1.cc\	-te-	2cc\	2.ee\
4D\	.	.	.	4BB/)	.	.	.	4f\	.	.	.	.	.
4E\	.	2ee\	.	(4E/	te-	2d\	dex-	4g\	.	.	.	2ee\	.
4C/	.	.	4gg\	4C/)	.	.	.	4e\	.	.	.	.	4gg\
=68	=68	=68	=68	=68	=68	=68	=68	=68	=68	=68-	=68	=68	=68
!	!	!	!	!	!	!LO:N:vis=2	!	!	!	!	!	!	!
2D\	7	2ff\	2ff\	(2D/	-ram	1e\	-te-	2.f\	.	.	.	2.dd\	2ff\
2G\	7	2ff\	2ff\	2G\)	.	.	.	.	.	2b\	.	.	2ff\
.	.	.	.	.	.	.	.	4f\	-te-	.	.	4dd\	.
=69	=69	=69	=69	=69	=69	=69-	=69	=69	=69	=69	=69	=69	=69
1C/	.	2gg\	2ee\	2C/	-Pa-	1c\	-ram	2g,\	-ram	2cc\	-ram	4cc\	4ee\
.	.	.	.	.	.	.	.	.	.	.	.	8cc\L	8ee\L
.	.	.	.	.	.	.	.	.	.	.	.	8dd\J	8ff\J
.	.	2gg\	[2cc\	2C/	-tris	.	.	2e\	Pa-	4ee\	Pa-	4ee\	4gg\
.	.	.	.	.	.	.	.	.	.	4ee\	.	4cc\	4ee\
=70	=70	=70	=70	=70	=70	=70-	=70	=70	=70	=70	=70	=70	=70
!	!	!	!	!	!	!LO:N:vis=2	!	!	!	!	!	!	!
2D/	7	2ff\	2cc\]	2D\	Pa-	1B\	Pa-	1f\	.	1dd\	.	2.dd\	2.ff\
2GG/	7	2ff\	2b\	2G\	.	.	.	.	.	.	.	.	.
.	.	.	.	.	.	.	.	.	.	.	.	8ee\L	8gg\L
.	.	.	.	.	.	.	.	.	.	.	.	8dd\J	8ff\J
=71	=71	=71	=71	=71	=71	=71	=71	=71	=71	=71	=71	=71	=71
2C/	.	2ee\	2cc\	2C,/	-tris	2c\	-tris	2g\	-tris	2cc\	.	2cc\	2ee\
4G\	.	4gg\	4dd\	4G\	Mi-	4d\	Mi-	4d,\	Mi-	4b\	.	4g/	4g/
4G\	.	4b/	4dd\	4G\	-ſe-	4B\	-ſe-	4g\	-ſe-	4dd\	-tris	4g/	4g/
!	!	!	!	!	!	!	!	!	!	!	!	!LO:LB:g=original	!LO:LB:g=original
=72	=72	=72	=72	=72	=72	=72	=72	=72	=72	=72	=72	=72	=72
4c\	.	4cc\	4ee\	4c\	-re-	4c\	-re-	4e\	-re-	4ee\	Mi-	4g/	4g/
4B\	6	4dd\	4dd\	4B\	-re	4d\	-re	4g\	-re	4dd\	-ſe-	8g/L	8g/L
.	.	.	.	.	.	.	.	.	.	.	.	8g/J	8g/J
*	*	*	*	*	*ij	*	*ij	*	*ij	*	*	*	*
4c\	.	4cc\	4ee\	4c\	Mi-	4c\	Mi-	4g\	Mi-	4ee\	-re-	4g/	4g/
4G\	.	4b\	4dd\	4G\	-se-	4d\	-ſe-	4b\	-se-	4b\	-re	4g/	4g/
!LO:PB:g=original	!	!	!	!	!	!	!	!	!	!LO:LB:g=original	!	!	!
=73	=73	=73	=73	=73	=73	=73	=73	=73	=73	=73	=73	=73	=73
4C/	.	4ee\	4cc\	4c\	-re-	4e\	-re-	4g\	-re-	4cc\	Mi-	4g/	4g/
4c\	.	4cc\	4ee\	4c\	-re	4d\	-re	4e\	-re	4ee\	-ſe-	8g/L	8g/L
.	.	.	.	.	.	.	.	.	.	.	.	8g/J	8g/J
4B\	.	4g/	4dd\	4B\	Mi-	4G/	Mi-	4g\	Mi-	4dd\	-re-	4g/	4g/
4G\	.	4b/	4b\	4G\	-se-	4B\	-ſe-	4b\	-se-	4b\	-re	4g/	4g/
!	!	!	!	!LO:LB:g=original	!	!	!	!LO:LB:g=original	!	!	!	!	!
=74	=74	=74	=74	=74	=74	=74	=74	=74	=74	=74	=74	=74	=74
4c\	.	4cc\	4cc\	4c\	-re-	4c\	-re-	4e\	-re-	1cc\	no-	4g/	4g/
4B\	.	4cc\	4cc\	4c\	-re	4d\	-re	4g\	-re	.	.	4g/	4g/
4A\	.	4cc\	4cc\	4B\	Mi-	4c\	Mi-	4a\	Mi-	.	.	2r	2r
4G\	.	4cc\	4cc\	4G\	-se-	4B\	-se-	4b\	-se-	.	.	.	.
!	!	!	!	!	!	!LO:LB:g=original	!	!	!	!	!	!	!
=75	=75	=75	=75	=75	=75	=75	=75	=75	=75	=75-	=75	=75	=75
4A\	.	4cc\	4cc\	4A\	-re-	2c\	-re-	4a\	-re-	1cc\	.	0r	0r
4G\	.	4cc\	4cc\	4G\	-re	.	.	4b\	-re	.	.	.	.
4F\	.	4cc\	4cc\	4F\	Mi-	2c\	-re	4a\	Mi-	.	.	.	.
*	*	*	*	*	*	*	*Xij	*	*	*	*	*	*
4E\	.	4cc\	4cc\	4E\	-se-	.	.	4g\	-se-	.	.	.	.
=76	=76	=76	=76	=76	=76	=76	=76	=76	=76	=76	=76	=76	=76
4F\	6 5	2cc\	2.dd\	4F\	-re-	2.d\	no-	4a\	-re-	2cc\	.	.	.
4D\	.	.	.	4D/	.	.	.	4a\	-re	.	.	.	.
*	*	*	*	*	*Xij	*	*	*	*Xij	*	*	*	*
4G\	4	2b\	.	2G\	.	.	.	2g\	no-	2b\	.	.	.
4GG/	3	.	4dd\	.	.	8c\L	.	.	.	.	.	.	.
.	.	.	.	.	.	8d\J	.	.	.	.	.	.	.
!	!	!	!LO:PB:g=original	!	!	!	!	!	!	!	!	!	!
=77	=77	=77	=77	=77	=77	=77	=77	=77	=77	=77	=77	=77	=77
2C/	.	2cc\	2ee\	2C,/	-re	2e,\	-bis	2g,\	-bis	2cc,\	-bis	2r	2r
2C/	.	2cc\	2ee\	4E/	Mi-	4e\	Mi-	4e\	Mi-	4cc\	Mi-	2e/	2cc\
.	.	.	.	4C/	-ſe-	4e\	-ſe-	4g\	-ſe-	4cc\	-ſe-	.	.
=78	=78	=78	=78	=78	=78	=78	=78	=78	=78	=78	=78	=78	=78
2BB/	6	2dd\	2dd\	2BB/	-re-	2d\	-re-	2g\	-re-	2.dd\	-re-	2g/	2dd\
2GG/	.	4b/	4dd\	2GG/	-re	2B;\	-re	2g\	-re	.	.	2g/	2dd\
.	.	4b/	4dd\	.	.	.	.	.	.	8cc\L	.	.	.
.	.	.	.	.	.	.	.	.	.	8dd\J	.	.	.
!	!	!LO:LB:g=original	!	!	!	!	!	!	!	!	!	!	!
=79	=79	=79	=79	=79	=79	=79	=79	=79	=79	=79	=79	=79	=79
2.C/	.	2cc\	2ee\	2C/	.	2c,\	.	2g\	Mi-	2ee,\	-re	2g/	2ee\
.	.	4ee\	4gg\	4C/	Mi-	4e\	Mi-	4e\	-ſe-	4gg\	Mi-	4ee\	4gg\
4D/	6	4dd\	4ff\	4D\	-ſe-	4d\	-ſe-	4f\	.	4ff\	-ſe-	4dd\	4ff\
=80	=80	=80	=80	=80	=80	=80	=80	=80	=80	=80	=80	=80	=80
2E\	6	1cc\	2ee\	2E\	-re-	2c\	-re-	2g\	-re-	2ee\	-re-	2cc\	2ee\
2F\	6 5	.	2dd\	2F\	-re	2c\	-re	2a\	-re	2dd\	-re	2cc\	2dd\
=81	=81	=81	=81	=81	=81	=81	=81	=81	=81	=81	=81	=81	=81
2G\	x 4	1b\	2.dd\	1G\	no-	(2c\	no-	1g\	no-	2.dd\	no-	2.g/	2.dd\
2GG/	7 3	.	.	.	.	2B\)	.	.	.	.	.	.	.
.	.	.	8cc\L	.	.	.	.	.	.	8cc\L	.	4g/	4dd\
.	.	.	8dd\J	.	.	.	.	.	.	8dd\J	.	.	.
=82	=82	=82	=82	=82	=82	=82	=82	=82	=82	=82	=82	=82	=82
1C/	.	1cc\	1ee\	1C/	-bis	1c\	-bis	1g\	-bis	1ee\	-bis	1e/	1cc\
!	!	!	!	!	!	!	!	!LO:LB:g=original	!	!	!	!	!
=83||	=83||	=83||	=83||	=83||	=83||	=83||	=83||	=83||	=83||	=83||	=83||	=83||	=83||
*M4/4	*	*M4/4	*M4/4	*M4/4	*	*M4/4	*	*M4/4	*	*M4/4	*	*M4/4	*M4/4
*met(c)	*	*met(c)	*met(c)	*met(c)	*	*met(c)	*	*met(c)	*	*met(c)	*	*met(c)	*met(c)
!LO:TX:rj:b:t=Quoniam	!	!	!	!	!	!	!	!	!	!	!	!LO:SIC:o:s=:v:nieczytelne wymazane dźwięki	!LO:SIC:o:s=:v:nieczytelne wymazane dźwięki
!LO:TX:a:i:t=Solo	!	!	!	!LO:TX:a:i:t=Solo	!	!	!	!	!	!	!	!	!LO:TX:b:t=Quoniam tu
4.C/	.	00r	00r	8.C/	Quo-	00r	.	00r	.	00r	.	1ryy	1ryy
.	.	.	.	16C/	-ni-	.	.	.	.	.	.	.	.
!	!	!	!	!LO:LB:g=original	!	!	!	!	!	!	!	!	!
.	.	.	.	8E,\	-am	.	.	.	.	.	.	.	.
8BB/	.	.	.	8G\	tu	.	.	.	.	.	.	.	.
!LO:PB:g=original	!	!	!	!	!	!	!	!	!	!	!	!	!
8C/L	.	.	.	8c\	ſo-	.	.	.	.	.	.	.	.
8D/	.	.	.	8C/	-lus	.	.	.	.	.	.	.	.
8E/	.	.	.	8r	.	.	.	.	.	.	.	.	.
8BB/J	.	.	.	8G\	tu	.	.	.	.	.	.	.	.
=84	=84	=84	=84	=84	=84	=84	=84	=84	=84	=84	=84	=84	=84
8C\L	.	.	.	8c\	ſo-	.	.	.	.	.	.	1ryy	1ryy
8G\	.	.	.	8B,\	-lus	.	.	.	.	.	.	.	.
8A\	7	.	.	(8A\L	ſo-	.	.	.	.	.	.	.	.
8D\J	7 #	.	.	8D\J)	.	.	.	.	.	.	.	.	.
4G\	.	.	.	8G,\	-lus	.	.	.	.	.	.	.	.
.	.	.	.	8G\	tu	.	.	.	.	.	.	.	.
4B\	.	.	.	(16G\LL	ſo-	.	.	.	.	.	.	.	.
.	.	.	.	16A\JJ)	.	.	.	.	.	.	.	.	.
.	.	.	.	(16G\LL	-lus	.	.	.	.	.	.	.	.
.	.	.	.	16F\JJ)	.	.	.	.	.	.	.	.	.
=85	=85	=85	=85	=85	=85	=85	=85	=85	=85	=85	=85	=85	=85
4c\	.	.	.	8.E\	-Do-	.	.	.	.	.	.	00r	1ryy
.	.	.	.	16D/	-mi-	.	.	.	.	.	.	.	.
8E/L	.	.	.	8C,/	-nus	.	.	.	.	.	.	.	.
8C/J	.	.	.	8G\	tu	.	.	.	.	.	.	.	.
4F\	.	.	.	4A\	ſo-	.	.	.	.	.	.	.	.
4D\	6	.	.	8B,\	-lus	.	.	.	.	.	.	.	.
.	.	.	.	(16A\LL	al-	.	.	.	.	.	.	.	.
.	.	.	.	16B\JJ)	.	.	.	.	.	.	.	.	.
=86	=86	=86	=86	=86	=86	=86	=86	=86	=86	=86	=86	=86	=86
4.C/	.	.	.	8c\	-tiſ-	.	.	.	.	.	.	.	1ryy
!	!	!	!	!LO:LB:g=original	!	!	!	!	!	!	!	!	!
.	.	.	.	16C/	-si-	.	.	.	.	.	.	.	.
.	.	.	.	16C/	-mus	.	.	.	.	.	.	.	.
.	.	.	.	8r	.	.	.	.	.	.	.	.	.
8D/	6	.	.	16E\	Je-	.	.	.	.	.	.	.	.
.	.	.	.	16F,\	-ſu	.	.	.	.	.	.	.	.
!LO:TX:a:t=P:mixed beam:problem	!	!	!	!	!	!	!	!	!	!	!	!	!
8E\L	6	.	.	8G\	Je-	.	.	.	.	.	.	.	.
8F\	6 5	.	.	8c,\	-ſu	.	.	.	.	.	.	.	.
8G\	4	.	.	4G\	-Chriſ-	.	.	.	.	.	.	.	.
8GG/J	3	.	.	.	.	.	.	.	.	.	.	.	.
=87	=87	=87	=87	=87	=87	=87	=87	=87	=87	=87	=87	=87	=87
!LO:TX:b:t=Cum ſ.	!	!LO:TX:b:i:t=Cum ſancto  S.	!LO:TX:b:i:t=Cum ſancto	!	!	!	!	!	!	!	!	!	!
8C/	.	8r	8r	8C,/	-te	8r	.	8r	.	8r	.	.	00r
!LO:TX:a:i:t=Tutti	!	!	!	!	!	!	!	!	!	!	!	!	!
8C\L	.	16cc\LL	16gg\LL	8C/	Cum	8c\	Cum	8e,\	-Cum	8ee\	Cum	.	.
.	.	16cc\JJ	16gg\JJ	.	.	.	.	.	.	.	.	.	.
!	!	!	!	!	!	!	!	!	!	!LO:LB:g=original	!	!	!
8E\	.	16cc\LL	16ee\LL	8E\	ſan-	8c\	ſan-	8g\	ſan-	8ee\	ſan-	.	.
.	.	16cc\	16gg\	.	.	.	.	.	.	.	.	.	.
8G\J	.	16b\	16dd\	8G,\	-cto	8B\	-cto	8b,\	-cto	8dd,\	-cto	.	.
.	.	16b\JJ	16gg\JJ	.	.	.	.	.	.	.	.	.	.
!	!	!	!	!	!	!LO:PB:g=original	!	!	!	!	!	!	!
8.C/L	.	8cc\L	8gg\L	8.C/	ſpi-	8.c\	ſpi-	8.g\	ſpi-	8.cc\	ſpi-	.	.
.	.	16ee\L	16ee\L	.	.	.	.	.	.	.	.	.	.
16C/K	.	16ee\JJ	16ee\JJ	16C/	-ri-	16e\	-ri-	16e\	-ri-	16g/	-ri-	.	.
8C/	.	16ee\LL	16cc\LL	8C/	-tu	8c\	-tu	8g\	-tu	8cc\	-tu	.	.
.	.	16cc\	16gg\	.	.	.	.	.	.	.	.	.	.
8E/J	.	16dd\	16ff\	8E\	in	8c\	in	8g\	in	8cc\	in	.	.
.	.	16ee\JJ	16gg\JJ	.	.	.	.	.	.	.	.	.	.
=88	=88	=88	=88	=88	=88	=88	=88	=88	=88	=88	=88	=88	=88
8F\L	.	16ff\LL	16aa\LL	8F\	glo-	8A/	glo-	8a\	glo-	8cc\	glo-	.	.
.	.	16aa\	16ff\	.	.	.	.	.	.	.	.	.	.
8F\	.	16aa\	16ff\	16F\	-ri-	16c\	-ri-	16f\	-ri-	16a\	-ri-	.	.
.	.	16aa\JJ	16ff\JJ	16F\	-a	16c\	-a	16f,\	-a	16a\	-a	.	.
8A\	.	8ff\L	16cc\LL	8A\	De-	8c\	De-	8f\	De-	8cc\	De-	.	.
.	.	.	16ff\	.	.	.	.	.	.	.	.	.	.
8F\J	.	8cc\J	16ff\	8F,\	-i	8A/	-i	8f\	-i	8cc,\	-i	.	.
.	.	.	16ff\JJ	.	.	.	.	.	.	.	.	.	.
!LO:TX:a:t=P:mixed beam:problem	!	!	!	!	!	!	!	!	!	!	!	!	!
8B-X\L	.	8dd\L	16dd\LL	8B-X\	Pa-	8G/	Pa-	8g\	Pa-	8dd\	Pa-	.	.
.	.	.	16gg\	.	.	.	.	.	.	.	.	.	.
!	!	!	!	!LO:LB:g=original	!	!	!	!	!	!	!	!	!
8G\	.	8dd\	16gg\	8G\	-tris	8G,/	-tris	8g,\	-tris	8dd,\	-tris	.	.
.	.	.	16gg\JJ	.	.	.	.	.	.	.	.	.	.
!	!	!	!LO:PB:g=original	!	!	!	!	!	!	!	!	!	!
!	!	!	!	!LO:TX:a:t=P:mixed beam:problem	!	!	!	!	!	!	!	!	!
8c\	.	8cc\	16gg\LL	8c\L	a-	4G/	a-	8f\L	a-	4cc\	a-	.	.
.	.	.	16gg\	.	.	.	.	.	.	.	.	.	.
8C/J	4	8cc\J	16gg\	8C/J	.	.	.	8e\J	.	.	.	.	.
.	3	.	16gg\JJ	.	.	.	.	.	.	.	.	.	.
=89	=89	=89	=89	=89	=89	=89	=89	=89	=89	=89	=89	=89	=89
8F\	3	8cc/L	16aa\LL	8F,\	-men	8A,/	-men	8f,\	-men	8cc\	-men	00r	.
.	.	.	16cc\	.	.	.	.	.	.	.	.	.	.
!	!	!	!	!	!	!LO:TX:a:t=P:mixed beam:problem	!	!	!	!	!	!	!
*	*	*	*	*	*	*	*	*	*ij	*	*	*	*
4F\	4 2	8a/	16cc\	4F\	a-	8c\L	a-	8f\	a-	8a\L	a-	.	.
.	.	.	16cc\JJ	.	.	.	.	.	.	.	.	.	.
.	.	8g/	16b-X\LL	.	.	8B\	.	4g\	-men	8b-X\	.	.	.
.	.	.	16b-\	.	.	.	.	.	.	.	.	.	.
8E\	6	8g/J	16cc\	8E,\	-men	8G/J	.	.	.	8cc\J	.	.	.
.	.	.	16cc\JJ	.	.	.	.	.	.	.	.	.	.
!LO:PB:g=original	!	!	!	!	!	!	!	!	!	!	!	!	!
8F\L	.	8f/L	8cc\L	8F\L	a-	8c\	.	8a\L	a-	8a,\	-men	.	.
16F\L	.	16g/L	16cc\L	16F\L	.	16c\LL	.	16a\L	.	16cc\LL	a-	.	.
16G\JJ	.	16g/JJ	16b-\JJ	16G\JJ	.	16B\JJ	.	16g\JJ	.	16b-X\J	.	.	.
8A\L	6	8f/L	8a/L	8A\L	.	8c\L	.	4f\	.	8a\	.	.	.
8B\J	.	8g/J	8g/J	8B\J	.	8d\J	.	.	.	8g\J	.	.	.
!	!	!	!	!	!	!	!	!LO:LB:g=original	!	!LO:LB:g=original	!	!	!
=90	=90	=90	=90	=90	=90	=90	=90	=90	=90	=90	=90	=90	=90
!	!	!LO:TX:a:t=P:mixed beam:problem	!	!	!	!	!	!	!	!	!	!	!
*	*	*	*	*	*	*	*	*	*	*	*ij	*	*
4c\	.	16g/LL	16f/LL	4c\	-men	4e\	-men	4e\	-men	4e/	-men	.	.
.	.	16ee\	16cc/	.	.	.	.	.	.	.	.	.	.
.	.	16ee\	16cc/	.	.	.	.	.	.	.	.	.	.
.	.	16ee\JJ	16cc/JJ	.	.	.	.	.	.	.	.	.	.
!	!	!LO:LB:g=original	!	!	!	!	!	!	!	!	!	!	!
8r	.	16ff\LL	16a/LL	8r	.	8r	.	8r	.	8r	.	.	.
.	.	16cc\	16cc/	.	.	.	.	.	.	.	.	.	.
*	*	*	*	*	*ij	*	*ij	*	*	*	*	*	*
8A\	6	16cc\	16cc/	8A\	a-	8c\	a-	8f\	a-	8cc\	a-	.	.
.	.	16cc\JJ	16cc/JJ	.	.	.	.	.	.	.	.	.	.
!LO:TX:a:t=P:mixed beam:problem	!	!	!	!	!	!	!	!	!	!	!	!	!
8B-X\L	.	16b/LL	16dd\LL	8B\L	.	4d\	.	4g\	.	8dd\L	.	.	.
.	.	16a/	16cc\	.	.	.	.	.	.	.	.	.	.
8G\	6 5	16g/	16b-X\	8G\	.	.	.	.	.	16ff\L	.	.	.
.	.	16f/JJ	16a\JJ	.	.	.	.	.	.	16gg\JJ	.	.	.
!	!	!	!LO:TX:a:t=P:mixed beam:problem	!	!	!	!	!	!	!	!	!	!
8c\	4	8.g/L	16g/LL	8c\	.	4c\	.	8f\L	.	8ff\L	.	.	.
.	.	.	16ee\	.	.	.	.	.	.	.	.	.	.
8C/J	3	.	16dd\	8C/J	.	.	.	8e\J	.	8ee\J	.	.	.
.	.	16g/Jk	16ee\JJ	.	.	.	.	.	.	.	.	.	.
=91	=91	=91	=91	=91	=91	=91	=91	=91	=91	=91	=91	=91	=91
8F\L	.	8a/L	16ff\LL	8F,\	-men	8c\	-men	8f\	-men	8ff\	-men	.	0r
*	*	*	*	*	*Xij	*	*Xij	*	*Xij	*	*Xij	*	*
.	.	.	16cc\	.	.	.	.	.	.	.	.	.	.
!	!	!	!	!	!	!LO:LB:g=original	!	!	!	!	!	!	!
8F\J	.	8a/	16cc\	8F\	in	8G/	in	8a\	in	8cc\	in	.	.
.	.	.	16cc\JJ	.	.	.	.	.	.	.	.	.	.
8F\L	4 2	8a/	16cc\LL	8F\	glo-	8G/	glo-	8g\	glo-	8cc\	glo-	.	.
.	.	.	16cc\	.	.	.	.	.	.	.	.	.	.
16E\L	.	8b/J	16cc\	16E\	-ri-	16B\	-ri-	16g\	-ri-	16cc\	-ri-	.	.
16D\JJ	.	.	16dd\JJ	16D/	-a	16B,\	-a	16f,\	-a	16dd\	-a	.	.
8C/L	.	8cc\L	16ee\LL	8C/	De-	8c\	De-	8e\	De-	8ee\	De-	.	.
.	.	.	16gg\	.	.	.	.	.	.	.	.	.	.
8D/	.	8cc\J	16ff\	8D/	-i	8B\	-i	8f,\	-i	8dd,\	-i	.	.
.	.	.	16ff\JJ	.	.	.	.	.	.	.	.	.	.
8E/	6	16cc\LL	16ee\LL	8E\	Pa-	8c\	Pa-	8g\	Pa-	8cc\	Pa-	.	.
.	.	16dd\	16ff\	.	.	.	.	.	.	.	.	.	.
8C/J	.	16ee\	16gg\	8C/	-tris	8c\	-tris	8e\	-tris	8ee\	-tris	.	.
.	.	16cc\JJ	16ee\JJ	.	.	.	.	.	.	.	.	.	.
!	!	!	!	!LO:LB:g=original	!	!	!	!	!	!	!	!	!
=92	=92	=92	=92	=92	=92	=92	=92	=92	=92	=92	=92	=92	=92
4.G\	.	16b\LL	16dd\LL	4.G\	a-	16B\LL	a-	4g\	a-	16dd\LL	a-	.	.
.	.	16dd\	16b\	.	.	16c\	.	.	.	16cc\	.	.	.
.	.	16dd\	16b\	.	.	16d\	.	.	.	16b\	.	.	.
.	.	16dd\JJ	16b\JJ	.	.	16c\JJ	.	.	.	16cc\JJ	.	.	.
.	.	8b\L	16dd\LL	.	.	8B\L	.	8d\L	.	8dd\L	.	.	.
.	.	.	16dd\	.	.	.	.	.	.	.	.	.	.
8E\	.	8cc\J	16ee\	8E\	.	8c\J	.	8g\J	.	8ee\J	.	.	.
.	.	.	16ee\JJ	.	.	.	.	.	.	.	.	.	.
!	!	!	!LO:PB:g=original	!	!	!	!	!	!	!	!	!	!
4A\	.	16cc\LL	16cc\LL	4A\	-men	4c\	-men	4a\	-men	4ee\	-men	.	.
.	.	16cc\	16ee\	.	.	.	.	.	.	.	.	.	.
.	.	16cc\	16ee\	.	.	.	.	.	.	.	.	.	.
.	.	16cc\JJ	16ee\JJ	.	.	.	.	.	.	.	.	.	.
8r	.	16ee\LL	16gg\LL	8r	.	8r	.	8r	.	8r	.	.	.
.	.	16gg\	16ee\	.	.	.	.	.	.	.	.	.	.
*	*	*	*	*	*	*	*ij	*	*ij	*	*ij	*	*
8E\	.	16gg\	16ee\	8E\	a-	8c\	a-	8g\	a-	8cc\	a-	.	.
.	.	16gg\JJ	16ee\JJ	.	.	.	.	.	.	.	.	.	.
=93	=93	=93	=93	=93	=93	=93	=93	=93	=93	=93	=93	=93	=93
!LO:TX:a:t=P:mixed beam:problem	!	!	!	!	!	!	!	!	!	!	!	!	!
8F\L	6 5	16ff\LL	16aa\LL	8F\L	.	4A/	.	16a\LL	.	4cc\	-men	2r	2r
.	.	16ee\	16gg\	.	.	.	.	16g\	.	.	.	.	.
8D\	.	16dd\	16ff\	8D\J	.	.	.	16f\	.	.	.	.	.
.	.	16cc\JJ	16ee\JJ	.	.	.	.	16e\JJ	.	.	.	.	.
!	!	!	!	!LO:TX:a:t=P:mixed beam:problem	!	!	!	!	!	!	!	!	!
*	*	*	*	*	*	*	*	*	*	*	*Xij	*	*
8G\	.	8.cc\L	8.dd\L	8G\L	.	4G/	.	4d\	.	4b\	a-	.	.
8GG/J	.	.	.	8GG\J	.	.	.	.	.	.	.	.	.
.	.	16b\Jk	16dd\Jk	.	.	.	.	.	.	.	.	.	.
!	!	!	!	!	!	!	!	!	!	!LO:LB:g=original	!	!	!
!LO:TX:a:t=P:mixed beam:problem	!	!	!	!	!	!	!	!	!	!	!	!	!
8C/L	.	8cc\L	8cc\L	8C,/	-men	8G/	.	8e\	-men	8cc\L	.	8r	8r
8c\J	.	8cc\J	8gg\	8c\	a-	8e\	.	8g\	a-	8cc\J	.	8e/L	8cc\L
!	!	!	!	!	!	!	!	!LO:LB:g=original	!	!	!	!	!
16B\LL	6	16dd\LL	8gg\	16B\LL	.	16d\LL	.	8d\L	.	4dd\	-men	8g/	8dd\
16A\	.	16cc\	.	16A\	.	16c\	.	.	.	.	.	.	.
16B\	.	16dd\	8gg\J	16B\	.	16d\	.	8g\J	.	.	.	8g/J	8dd\J
16G\JJ	.	16b\JJ	.	16G\JJ	.	16B\JJ	.	.	.	.	.	.	.
=94	=94	=94	=94	=94	=94	=94	=94	=94	=94	=94	=94	=94	=94
!LO:TX:a:t=P:mixed beam:problem	!	!	!	!	!	!	!	!	!	!	!	!LO:TX:a:t=P:mixed beam:problem	!
8C/L	.	8cc\L	8gg\L	8C,/	-men	8c\	-men	8g\	.	4ee\	a-	8cc\L	8ee\L
*	*	*	*	*	*ij	*	*	*	*	*	*	*	*
8c\J	.	8cc\J	8gg\	8c\	a-	8c\	a-	8g\	.	.	.	8e/	8cc\
16B\LL	6	16dd\LL	8gg\	16B\LL	.	16d\LL	.	8d\L	.	4dd\	.	8g/	8dd\
16A\	.	16cc\	.	16A\	.	16c\	.	.	.	.	.	.	.
16B\	.	16dd\	8gg\J	16B\	.	16d\	.	8g\J	.	.	.	8g/J	8dd\J
16G\JJ	.	16b\JJ	.	16G\JJ	.	16B\JJ	.	.	.	.	.	.	.
!	!	!LO:LB:g=original	!	!	!	!	!	!	!	!	!	!	!LO:LB:g=original
4c\	.	16cc\LL	16gg\LL	4c\	-men	4c\	-men	4g\	-men	4ee\	-men	16cc\LL	16ee\LL
*	*	*	*	*	*Xij	*	*Xij	*	*Xij	*	*Xij	*	*
.	.	16dd\	16ff\	.	.	.	.	.	.	.	.	16dd\	16ff\
.	.	16cc\	16ee\	.	.	.	.	.	.	.	.	16ee\	16gg\
.	.	16dd\JJ	16ff\JJ	.	.	.	.	.	.	.	.	16dd\JJ	16ff\JJ
!	!	!	!	!	!	!LO:LB:g=original	!	!	!	!	!	!	!
8r	.	16cc\LL	16ee\LL	8r	.	8r	.	8r	.	8r	.	16cc\LL	16ee\LL
.	.	16dd\	16ff\	.	.	.	.	.	.	.	.	16dd\	16ff\
16C/LL	.	16ff\	16gg\	16C/LL	a-	16e\LL	a-	16e\LL	a-	16gg\LL	a-	16ee\	16gg\
16D/JJ	.	16dd\JJ	16ff\JJ	16D/JJ	.	16d\JJ	.	16f\JJ	.	16ff\JJ	.	16dd\JJ	16ff\JJ
=95	=95	=95	=95	=95	=95	=95	=95	=95	=95	=95	=95	=95	=95
!LO:TX:a:t=P:mixed beam:problem	!	!	!	!	!	!	!	!	!	!	!	!	!
!LO:TX:b:t=amen	!	!	!	!LO:TX:a:t=P:mixed beam:problem	!	!	!	!	!	!	!	!	!
8E\L	6	16cc\LL	16ee\LL	8E\L	.	4.c\	.	8g\L	.	8ee\L	.	16cc\LL	16ee\LL
.	.	16ee\	16gg\	.	.	.	.	.	.	.	.	16ee\	16gg\
8F\	6 5	16dd\	16ff\	8F\	.	.	.	8a\J	.	8dd\J	.	16dd\	16ff\
.	.	16cc\JJ	16ee\JJ	.	.	.	.	.	.	.	.	16cc\JJ	16ee\JJ
8G\	7 4	8.dd\L	16dd\LL	8G\	.	.	.	4g\	.	8dd\L	.	8.g/L	8.dd\L
.	.	.	16bb\	.	.	.	.	.	.	.	.	.	.
8GG\J	x 3	.	16aa\	8GG/J	.	8B\	.	.	.	16cc\L	.	.	.
.	.	16dd\Jk	16bb\JJ	.	.	.	.	.	.	16dd\JJ	.	16g/Jk	16dd\Jk
!	!	!	!LO:TX:a:t=P:mixed beam:problem	!	!	!	!	!	!	!	!	!	!LO:TX:a:t=P:mixed beam:problem
4C/	.	8ee\L	8ccc\L	4C/	-men	4c\	-men	4g\	-men	4ee\	-men	8e/L	8cc\L
.	.	8ee\J	8cc/J	.	.	.	.	.	.	.	.	16e/L	16g/L
.	.	.	.	.	.	.	.	.	.	.	.	16e/JJ	16g/JJ
4r	.	4r	4r	4r	.	4r	.	4r	.	4r	.	8c/	8e/
.	.	.	.	.	.	.	.	.	.	.	.	8r	8r
==:||:	==	==:||:	==:||:	==:||:	==	==:||:	==	==:||:	==	==:||:	==	==:||:	==:||:
*-	*-	*-	*-	*-	*-	*-	*-	*-	*-	*-	*-	*-	*-
!!!system-decoration: [(s1,s2)][(s3,s4,s5,s6)][(s7,s8)]s9
!!!RDF**kern: > = above
!!!RDF**kern: < = below
!!!ENC: Tomasz Grochalski
!!!END: 2020-05-04
!!!EED: Leszek Kubiak
!!!EST: 2020-11-09
